(Project Panel_Arriba)
(Created by Estlcam version 11 build 11,244)
(Machining time about 00:35:46 hours)

(Required tools:)
(End mill 3mm)

G90
G91.1
M03 S24000
G00 Z5.0000


(No. 1: Part 15)
G00 X4.9780 Y24.9035
G00 Z0.5000
G01 Z0.0000 F100 S24000
G02 X5.0220 Y25.0965 Z-0.1554 I0.0220 J0.0965
G02 X5.0836 Y24.9470 Z-0.2500 I-0.0220 J-0.0965
G03 X5.0220 Y25.0965 Z-0.3446 I-0.0836 J0.0530
G03 X4.9780 Y24.9035 Z-0.5000 I-0.0220 J-0.0965
G02 X5.0220 Y25.0965 I0.0220 J0.0965 F500
G02 X4.9780 Y24.9035 I-0.0220 J-0.0965
G02 X5.0220 Y25.0965 Z-0.6554 I0.0220 J0.0965 F100
G02 X5.0836 Y24.9470 Z-0.7500 I-0.0220 J-0.0965
G03 X5.0220 Y25.0965 Z-0.8446 I-0.0836 J0.0530
G03 X4.9780 Y24.9035 Z-1.0000 I-0.0220 J-0.0965
G02 X5.0220 Y25.0965 I0.0220 J0.0965 F500
G02 X4.9780 Y24.9035 I-0.0220 J-0.0965
G02 X5.0220 Y25.0965 Z-1.1554 I0.0220 J0.0965 F100
G02 X5.0836 Y24.9470 Z-1.2500 I-0.0220 J-0.0965
G03 X5.0220 Y25.0965 Z-1.3446 I-0.0836 J0.0530
G03 X4.9780 Y24.9035 Z-1.5000 I-0.0220 J-0.0965
G02 X5.0220 Y25.0965 I0.0220 J0.0965 F500
G02 X4.9780 Y24.9035 I-0.0220 J-0.0965
G02 X5.0220 Y25.0965 Z-1.6554 I0.0220 J0.0965 F100
G02 X5.0836 Y24.9470 Z-1.7500 I-0.0220 J-0.0965
G03 X5.0220 Y25.0965 Z-1.8446 I-0.0836 J0.0530
G03 X4.9780 Y24.9035 Z-2.0000 I-0.0220 J-0.0965
G02 X5.0220 Y25.0965 I0.0220 J0.0965 F500
G02 X4.9780 Y24.9035 I-0.0220 J-0.0965
G02 X5.0220 Y25.0965 Z-2.1554 I0.0220 J0.0965 F100
G02 X5.0836 Y24.9470 Z-2.2500 I-0.0220 J-0.0965
G03 X5.0220 Y25.0965 Z-2.3446 I-0.0836 J0.0530
G03 X4.9780 Y24.9035 Z-2.5000 I-0.0220 J-0.0965
G02 X5.0220 Y25.0965 I0.0220 J0.0965 F500
G02 X4.9780 Y24.9035 I-0.0220 J-0.0965
G02 X5.0220 Y25.0965 Z-2.6554 I0.0220 J0.0965 F100
G02 X5.0836 Y24.9470 Z-2.7500 I-0.0220 J-0.0965
G03 X5.0220 Y25.0965 Z-2.8446 I-0.0836 J0.0530
G03 X4.9780 Y24.9035 Z-3.0000 I-0.0220 J-0.0965
G02 X5.0220 Y25.0965 I0.0220 J0.0965 F500
G02 X4.9780 Y24.9035 I-0.0220 J-0.0965
G02 X5.0220 Y25.0965 Z-3.1554 I0.0220 J0.0965 F100
G02 X5.0836 Y24.9470 Z-3.2500 I-0.0220 J-0.0965
G03 X5.0220 Y25.0965 Z-3.3446 I-0.0836 J0.0530
G03 X4.9780 Y24.9035 Z-3.5000 I-0.0220 J-0.0965
G02 X5.0220 Y25.0965 I0.0220 J0.0965 F500
G02 X4.9780 Y24.9035 I-0.0220 J-0.0965
G00 Z5.0000


(No. 2: Part 2)
G00 X27.3380 Y29.7437 Z5.0000
G00 Z0.5000
G01 Z0.0000 F100
G02 X26.8571 Y29.8805 Z-0.2500 I2.6585 J10.2570
G03 X27.3380 Y29.7437 Z-0.5000 I3.1394 J10.1202
G02 X27.2451 Y50.2332 I2.6585 J10.2570 F500
G02 X32.1968 Y50.3673 I2.7530 J-10.1631
G02 X32.2906 Y29.6514 I-2.1954 J-10.3681
G02 X27.3380 Y29.7437 I-2.2856 J10.2727
G02 X26.8571 Y29.8805 Z-0.7500 I2.6585 J10.2570 F100
G03 X27.3380 Y29.7437 Z-1.0000 I3.1394 J10.1202
G02 X27.2451 Y50.2332 I2.6585 J10.2570 F500
G02 X32.1968 Y50.3673 I2.7530 J-10.1631
G02 X32.2906 Y29.6514 I-2.1954 J-10.3681
G02 X27.3380 Y29.7437 I-2.2856 J10.2727
G02 X26.8571 Y29.8805 Z-1.2500 I2.6585 J10.2570 F100
G03 X27.3380 Y29.7437 Z-1.5000 I3.1394 J10.1202
G02 X27.2451 Y50.2332 I2.6585 J10.2570 F500
G02 X32.1968 Y50.3673 I2.7530 J-10.1631
G02 X32.2906 Y29.6514 I-2.1954 J-10.3681
G02 X27.3380 Y29.7437 I-2.2856 J10.2727
G02 X26.8571 Y29.8805 Z-1.7500 I2.6585 J10.2570 F100
G03 X27.3380 Y29.7437 Z-2.0000 I3.1394 J10.1202
G02 X27.2451 Y50.2332 I2.6585 J10.2570 F500
G00 Z-1.5000
G02 X32.1968 Y50.3673 I2.7530 J-10.1631
G02 X32.6834 Y50.2523 Z-1.7500 I-2.1954 J-10.3681 F100
G03 X32.1968 Y50.3673 Z-2.0000 I-2.6819 J-10.2531
G02 X32.2906 Y29.6514 I-2.1954 J-10.3681 F500
G00 Z-1.5000
G02 X27.3380 Y29.7437 I-2.2856 J10.2727
G01 Z-2.0000 F100
G02 X26.8571 Y29.8805 Z-2.2500 I2.6585 J10.2570
G03 X27.3380 Y29.7437 Z-2.5000 I3.1394 J10.1202
G02 X27.2451 Y50.2332 I2.6585 J10.2570 F500
G00 Z-1.5000
G02 X32.1968 Y50.3673 I2.7530 J-10.1631
G01 Z-2.0000 F100
G02 X32.6834 Y50.2523 Z-2.2500 I-2.1954 J-10.3681
G03 X32.1968 Y50.3673 Z-2.5000 I-2.6819 J-10.2531
G02 X32.2906 Y29.6514 I-2.1954 J-10.3681 F500
G00 Z-1.5000
G02 X27.3380 Y29.7437 I-2.2856 J10.2727
G00 Z-2.0000
G01 Z-2.5000 F100
G02 X26.8571 Y29.8805 Z-2.7500 I2.6585 J10.2570
G03 X27.3380 Y29.7437 Z-3.0000 I3.1394 J10.1202
G02 X27.2451 Y50.2332 I2.6585 J10.2570 F500
G00 Z-1.5000
G02 X32.1968 Y50.3673 I2.7530 J-10.1631
G00 Z-2.0000
G01 Z-2.5000 F100
G02 X32.6834 Y50.2523 Z-2.7500 I-2.1954 J-10.3681
G03 X32.1968 Y50.3673 Z-3.0000 I-2.6819 J-10.2531
G02 X32.2906 Y29.6514 I-2.1954 J-10.3681 F500
G00 Z-1.5000
G02 X27.3380 Y29.7437 I-2.2856 J10.2727
G00 Z-2.5000
G01 Z-3.0000 F100
G02 X26.8571 Y29.8805 Z-3.2500 I2.6585 J10.2570
G03 X27.3380 Y29.7437 Z-3.5000 I3.1394 J10.1202
G02 X27.2451 Y50.2332 I2.6585 J10.2570 F500
G00 Z-1.5000
G02 X32.1968 Y50.3673 I2.7530 J-10.1631
G00 Z-2.5000
G01 Z-3.0000 F100
G02 X32.6834 Y50.2523 Z-3.2500 I-2.1954 J-10.3681
G03 X32.1968 Y50.3673 Z-3.5000 I-2.6819 J-10.2531
G02 X32.2906 Y29.6514 I-2.1954 J-10.3681 F500
G00 Z-1.5000
G02 X27.3380 Y29.7437 I-2.2856 J10.2727
G00 Z5.0000


(No. 3: Part 6)
G00 X27.7094 Y64.6514 Z5.0000
G00 Z0.5000
G01 Z0.0000 F100
G02 X27.2239 Y64.7708 Z-0.2500 I2.2882 J10.3471
G03 X27.7094 Y64.6514 Z-0.5000 I2.7737 J10.2277
G02 X27.8971 Y85.3854 I2.2882 J10.3471 F500
G02 X32.8475 Y85.2094 I2.1112 J-10.3313
G02 X32.6620 Y64.7437 I-2.8450 J-10.2079
G02 X27.7094 Y64.6514 I-2.6674 J10.2019
G02 X27.2239 Y64.7708 Z-0.7500 I2.2882 J10.3471 F100
G03 X27.7094 Y64.6514 Z-1.0000 I2.7737 J10.2277
G02 X27.8971 Y85.3854 I2.2882 J10.3471 F500
G02 X32.8475 Y85.2094 I2.1112 J-10.3313
G02 X32.6620 Y64.7437 I-2.8450 J-10.2079
G02 X27.7094 Y64.6514 I-2.6674 J10.2019
G02 X27.2239 Y64.7708 Z-1.2500 I2.2882 J10.3471 F100
G03 X27.7094 Y64.6514 Z-1.5000 I2.7737 J10.2277
G02 X27.8971 Y85.3854 I2.2882 J10.3471 F500
G02 X32.8475 Y85.2094 I2.1112 J-10.3313
G02 X32.6620 Y64.7437 I-2.8450 J-10.2079
G02 X27.7094 Y64.6514 I-2.6674 J10.2019
G02 X27.2239 Y64.7708 Z-1.7500 I2.2882 J10.3471 F100
G03 X27.7094 Y64.6514 Z-2.0000 I2.7737 J10.2277
G02 X27.8971 Y85.3854 I2.2882 J10.3471 F500
G00 Z-1.5000
G02 X32.8475 Y85.2094 I2.1112 J-10.3313
G02 X33.3258 Y85.0639 Z-1.7500 I-2.8450 J-10.2079 F100
G03 X32.8475 Y85.2094 Z-2.0000 I-3.3233 J-10.0624
G02 X32.6620 Y64.7437 I-2.8450 J-10.2079 F500
G00 Z-1.5000
G02 X27.7094 Y64.6514 I-2.6674 J10.2019
G01 Z-2.0000 F100
G02 X27.2239 Y64.7708 Z-2.2500 I2.2882 J10.3471
G03 X27.7094 Y64.6514 Z-2.5000 I2.7737 J10.2277
G02 X27.8971 Y85.3854 I2.2882 J10.3471 F500
G00 Z-1.5000
G02 X32.8475 Y85.2094 I2.1112 J-10.3313
G01 Z-2.0000 F100
G02 X33.3258 Y85.0639 Z-2.2500 I-2.8450 J-10.2079
G03 X32.8475 Y85.2094 Z-2.5000 I-3.3233 J-10.0624
G02 X32.6620 Y64.7437 I-2.8450 J-10.2079 F500
G00 Z-1.5000
G02 X27.7094 Y64.6514 I-2.6674 J10.2019
G00 Z-2.0000
G01 Z-2.5000 F100
G02 X27.2239 Y64.7708 Z-2.7500 I2.2882 J10.3471
G03 X27.7094 Y64.6514 Z-3.0000 I2.7737 J10.2277
G02 X27.8971 Y85.3854 I2.2882 J10.3471 F500
G00 Z-1.5000
G02 X32.8475 Y85.2094 I2.1112 J-10.3313
G00 Z-2.0000
G01 Z-2.5000 F100
G02 X33.3258 Y85.0639 Z-2.7500 I-2.8450 J-10.2079
G03 X32.8475 Y85.2094 Z-3.0000 I-3.3233 J-10.0624
G02 X32.6620 Y64.7437 I-2.8450 J-10.2079 F500
G00 Z-1.5000
G02 X27.7094 Y64.6514 I-2.6674 J10.2019
G00 Z-2.5000
G01 Z-3.0000 F100
G02 X27.2239 Y64.7708 Z-3.2500 I2.2882 J10.3471
G03 X27.7094 Y64.6514 Z-3.5000 I2.7737 J10.2277
G02 X27.8971 Y85.3854 I2.2882 J10.3471 F500
G00 Z-1.5000
G02 X32.8475 Y85.2094 I2.1112 J-10.3313
G00 Z-2.5000
G01 Z-3.0000 F100
G02 X33.3258 Y85.0639 Z-3.2500 I-2.8450 J-10.2079
G03 X32.8475 Y85.2094 Z-3.5000 I-3.3233 J-10.0624
G02 X32.6620 Y64.7437 I-2.8450 J-10.2079 F500
G00 Z-1.5000
G02 X27.7094 Y64.6514 I-2.6674 J10.2019
G00 Z5.0000


(No. 4: Part 10)
G00 X27.1525 Y99.7906 Z5.0000
G00 Z0.5000
G01 Z0.0000 F100
G02 X26.6742 Y99.9361 Z-0.2500 I2.8449 J10.2080
G03 X27.1525 Y99.7906 Z-0.5000 I3.3232 J10.0625
G02 X27.8971 Y120.3854 I2.8449 J10.2080 F500
G02 X32.8475 Y120.2094 I2.1112 J-10.3313
G02 X32.1029 Y99.6146 I-2.8449 J-10.2080
G02 X27.1525 Y99.7906 I-2.1112 J10.3313
G02 X26.6742 Y99.9361 Z-0.7500 I2.8449 J10.2080 F100
G03 X27.1525 Y99.7906 Z-1.0000 I3.3232 J10.0625
G02 X27.8971 Y120.3854 I2.8449 J10.2080 F500
G02 X32.8475 Y120.2094 I2.1112 J-10.3313
G02 X32.1029 Y99.6146 I-2.8449 J-10.2080
G02 X27.1525 Y99.7906 I-2.1112 J10.3313
G02 X26.6742 Y99.9361 Z-1.2500 I2.8449 J10.2080 F100
G03 X27.1525 Y99.7906 Z-1.5000 I3.3232 J10.0625
G02 X27.8971 Y120.3854 I2.8449 J10.2080 F500
G02 X32.8475 Y120.2094 I2.1112 J-10.3313
G02 X32.1029 Y99.6146 I-2.8449 J-10.2080
G02 X27.1525 Y99.7906 I-2.1112 J10.3313
G02 X26.6742 Y99.9361 Z-1.7500 I2.8449 J10.2080 F100
G03 X27.1525 Y99.7906 Z-2.0000 I3.3232 J10.0625
G02 X27.8971 Y120.3854 I2.8449 J10.2080 F500
G00 Z-1.5000
G02 X32.8475 Y120.2094 I2.1112 J-10.3313
G02 X33.3258 Y120.0639 Z-1.7500 I-2.8449 J-10.2080 F100
G03 X32.8475 Y120.2094 Z-2.0000 I-3.3232 J-10.0625
G02 X32.1029 Y99.6146 I-2.8449 J-10.2080 F500
G00 Z-1.5000
G02 X27.1525 Y99.7906 I-2.1112 J10.3313
G01 Z-2.0000 F100
G02 X26.6742 Y99.9361 Z-2.2500 I2.8449 J10.2080
G03 X27.1525 Y99.7906 Z-2.5000 I3.3232 J10.0625
G02 X27.8971 Y120.3854 I2.8449 J10.2080 F500
G00 Z-1.5000
G02 X32.8475 Y120.2094 I2.1112 J-10.3313
G01 Z-2.0000 F100
G02 X33.3258 Y120.0639 Z-2.2500 I-2.8449 J-10.2080
G03 X32.8475 Y120.2094 Z-2.5000 I-3.3232 J-10.0625
G02 X32.1029 Y99.6146 I-2.8449 J-10.2080 F500
G00 Z-1.5000
G02 X27.1525 Y99.7906 I-2.1112 J10.3313
G00 Z-2.0000
G01 Z-2.5000 F100
G02 X26.6742 Y99.9361 Z-2.7500 I2.8449 J10.2080
G03 X27.1525 Y99.7906 Z-3.0000 I3.3232 J10.0625
G02 X27.8971 Y120.3854 I2.8449 J10.2080 F500
G00 Z-1.5000
G02 X32.8475 Y120.2094 I2.1112 J-10.3313
G00 Z-2.0000
G01 Z-2.5000 F100
G02 X33.3258 Y120.0639 Z-2.7500 I-2.8449 J-10.2080
G03 X32.8475 Y120.2094 Z-3.0000 I-3.3232 J-10.0625
G02 X32.1029 Y99.6146 I-2.8449 J-10.2080 F500
G00 Z-1.5000
G02 X27.1525 Y99.7906 I-2.1112 J10.3313
G00 Z-2.5000
G01 Z-3.0000 F100
G02 X26.6742 Y99.9361 Z-3.2500 I2.8449 J10.2080
G03 X27.1525 Y99.7906 Z-3.5000 I3.3232 J10.0625
G02 X27.8971 Y120.3854 I2.8449 J10.2080 F500
G00 Z-1.5000
G02 X32.8475 Y120.2094 I2.1112 J-10.3313
G00 Z-2.5000
G01 Z-3.0000 F100
G02 X33.3258 Y120.0639 Z-3.2500 I-2.8449 J-10.2080
G03 X32.8475 Y120.2094 Z-3.5000 I-3.3232 J-10.0625
G02 X32.1029 Y99.6146 I-2.8449 J-10.2080 F500
G00 Z-1.5000
G02 X27.1525 Y99.7906 I-2.1112 J10.3313
G00 Z5.0000


(No. 5: Part 14)
G00 X4.9926 Y114.9013 Z5.0000
G00 Z0.5000
G01 Z0.0000 F100
G02 X5.0074 Y115.0987 Z-0.1554 I0.0074 J0.0987
G02 X5.0905 Y114.9601 Z-0.2500 I-0.0074 J-0.0987
G03 X5.0074 Y115.0987 Z-0.3446 I-0.0905 J0.0399
G03 X4.9926 Y114.9013 Z-0.5000 I-0.0074 J-0.0987
G02 X5.0074 Y115.0987 I0.0074 J0.0987 F500
G02 X4.9926 Y114.9013 I-0.0074 J-0.0987
G02 X5.0074 Y115.0987 Z-0.6554 I0.0074 J0.0987 F100
G02 X5.0905 Y114.9601 Z-0.7500 I-0.0074 J-0.0987
G03 X5.0074 Y115.0987 Z-0.8446 I-0.0905 J0.0399
G03 X4.9926 Y114.9013 Z-1.0000 I-0.0074 J-0.0987
G02 X5.0074 Y115.0987 I0.0074 J0.0987 F500
G02 X4.9926 Y114.9013 I-0.0074 J-0.0987
G02 X5.0074 Y115.0987 Z-1.1554 I0.0074 J0.0987 F100
G02 X5.0905 Y114.9601 Z-1.2500 I-0.0074 J-0.0987
G03 X5.0074 Y115.0987 Z-1.3446 I-0.0905 J0.0399
G03 X4.9926 Y114.9013 Z-1.5000 I-0.0074 J-0.0987
G02 X5.0074 Y115.0987 I0.0074 J0.0987 F500
G02 X4.9926 Y114.9013 I-0.0074 J-0.0987
G02 X5.0074 Y115.0987 Z-1.6554 I0.0074 J0.0987 F100
G02 X5.0905 Y114.9601 Z-1.7500 I-0.0074 J-0.0987
G03 X5.0074 Y115.0987 Z-1.8446 I-0.0905 J0.0399
G03 X4.9926 Y114.9013 Z-2.0000 I-0.0074 J-0.0987
G02 X5.0074 Y115.0987 I0.0074 J0.0987 F500
G02 X4.9926 Y114.9013 I-0.0074 J-0.0987
G02 X5.0074 Y115.0987 Z-2.1554 I0.0074 J0.0987 F100
G02 X5.0905 Y114.9601 Z-2.2500 I-0.0074 J-0.0987
G03 X5.0074 Y115.0987 Z-2.3446 I-0.0905 J0.0399
G03 X4.9926 Y114.9013 Z-2.5000 I-0.0074 J-0.0987
G02 X5.0074 Y115.0987 I0.0074 J0.0987 F500
G02 X4.9926 Y114.9013 I-0.0074 J-0.0987
G02 X5.0074 Y115.0987 Z-2.6554 I0.0074 J0.0987 F100
G02 X5.0905 Y114.9601 Z-2.7500 I-0.0074 J-0.0987
G03 X5.0074 Y115.0987 Z-2.8446 I-0.0905 J0.0399
G03 X4.9926 Y114.9013 Z-3.0000 I-0.0074 J-0.0987
G02 X5.0074 Y115.0987 I0.0074 J0.0987 F500
G02 X4.9926 Y114.9013 I-0.0074 J-0.0987
G02 X5.0074 Y115.0987 Z-3.1554 I0.0074 J0.0987 F100
G02 X5.0905 Y114.9601 Z-3.2500 I-0.0074 J-0.0987
G03 X5.0074 Y115.0987 Z-3.3446 I-0.0905 J0.0399
G03 X4.9926 Y114.9013 Z-3.5000 I-0.0074 J-0.0987
G02 X5.0074 Y115.0987 I0.0074 J0.0987 F500
G02 X4.9926 Y114.9013 I-0.0074 J-0.0987
G00 Z5.0000


(No. 6: Part 12)
G00 X66.7015 Y110.0000 Z5.0000
G00 Z0.5000
G01 Z0.0000 F100
G01 X67.2015 Z-0.2500
G01 X66.7015 Z-0.5000
G01 X73.2985 F500
G01 X72.5402 Y112.1000
G01 X67.4598
G01 Y107.9000
G01 X72.5402
G01 X72.7487 Y107.6820
G02 X67.1601 Y112.2104 I-2.7508 J2.3178
G02 X72.7487 Y107.6820 I2.8397 J-2.2082
G01 X72.5402 Y107.9000
G01 X72.0402 Z-0.7500 F100
G01 X72.5402 Z-1.0000
G01 X67.4598 F500
G01 X66.7015 Y110.0000
G01 X73.2985
G01 X72.5402 Y112.1000
G01 X67.4598
G01 X67.2513 Y112.3180
G02 X72.8399 Y107.7896 I2.7508 J-2.3178
G02 X67.2513 Y112.3180 I-2.8397 J2.2082
G01 X67.4598 Y112.1000
G01 X67.9598 Z-1.2500 F100
G01 X67.4598 Z-1.5000
G01 X72.5402 F500
G01 X73.2985 Y110.0000
G01 X66.7015
G01 X67.4598 Y107.9000
G01 X72.5402
G01 X72.7487 Y107.6820
G02 X67.1601 Y112.2104 I-2.7508 J2.3178
G02 X72.7487 Y107.6820 I2.8397 J-2.2082
G01 X72.5402 Y107.9000
G01 X72.0402 Z-1.7500 F100
G01 X72.5402 Z-2.0000
G01 X67.4598 F500
G01 X66.7015 Y110.0000
G01 X73.2985
G01 X72.5402 Y112.1000
G01 X67.4598
G01 X67.2513 Y112.3180
G02 X72.8399 Y107.7896 I2.7508 J-2.3178
G02 X67.2513 Y112.3180 I-2.8397 J2.2082
G01 X67.4598 Y112.1000
G01 X67.9598 Z-2.2500 F100
G01 X67.4598 Z-2.5000
G01 X72.5402 F500
G01 X73.2985 Y110.0000
G01 X66.7015
G01 X67.4598 Y107.9000
G01 X72.5402
G01 X72.7487 Y107.6820
G02 X67.1601 Y112.2104 I-2.7508 J2.3178
G02 X72.7487 Y107.6820 I2.8397 J-2.2082
G01 X72.5402 Y107.9000
G01 X72.0402 Z-2.7500 F100
G01 X72.5402 Z-3.0000
G01 X67.4598 F500
G01 X66.7015 Y110.0000
G01 X73.2985
G01 X72.5402 Y112.1000
G01 X67.4598
G01 X67.2513 Y112.3180
G02 X72.8399 Y107.7896 I2.7508 J-2.3178
G02 X67.2513 Y112.3180 I-2.8397 J2.2082
G01 X67.4598 Y112.1000
G01 X67.9598 Z-3.2500 F100
G01 X67.4598 Z-3.5000
G01 X72.5402 F500
G01 X73.2985 Y110.0000
G01 X66.7015
G01 X67.4598 Y107.9000
G01 X72.5402
G01 X72.7487 Y107.6820
G02 X67.1601 Y112.2104 I-2.7508 J2.3178
G02 X72.7487 Y107.6820 I2.8397 J-2.2082
G01 X72.5402 Y107.9000
G00 Z5.0000


(No. 7: Part 13)
G00 X106.7015 Y110.0000 Z5.0000
G00 Z0.5000
G01 Z0.0000 F100
G01 X107.2015 Z-0.2500
G01 X106.7015 Z-0.5000
G01 X113.2985 F500
G01 X112.5402 Y112.1000
G01 X107.4598
G01 Y107.9000
G01 X112.5402
G01 X112.7487 Y107.6820
G02 X107.1601 Y112.2104 I-2.7508 J2.3178
G02 X112.7487 Y107.6820 I2.8397 J-2.2082
G01 X112.5402 Y107.9000
G01 X112.0402 Z-0.7500 F100
G01 X112.5402 Z-1.0000
G01 X107.4598 F500
G01 X106.7015 Y110.0000
G01 X113.2985
G01 X112.5402 Y112.1000
G01 X107.4598
G01 X107.2513 Y112.3180
G02 X112.8399 Y107.7896 I2.7508 J-2.3178
G02 X107.2513 Y112.3180 I-2.8397 J2.2082
G01 X107.4598 Y112.1000
G01 X107.9598 Z-1.2500 F100
G01 X107.4598 Z-1.5000
G01 X112.5402 F500
G01 X113.2985 Y110.0000
G01 X106.7015
G01 X107.4598 Y107.9000
G01 X112.5402
G01 X112.7487 Y107.6820
G02 X107.1601 Y112.2104 I-2.7508 J2.3178
G02 X112.7487 Y107.6820 I2.8397 J-2.2082
G01 X112.5402 Y107.9000
G01 X112.0402 Z-1.7500 F100
G01 X112.5402 Z-2.0000
G01 X107.4598 F500
G01 X106.7015 Y110.0000
G01 X113.2985
G01 X112.5402 Y112.1000
G01 X107.4598
G01 X107.2513 Y112.3180
G02 X112.8399 Y107.7896 I2.7508 J-2.3178
G02 X107.2513 Y112.3180 I-2.8397 J2.2082
G01 X107.4598 Y112.1000
G01 X107.9598 Z-2.2500 F100
G01 X107.4598 Z-2.5000
G01 X112.5402 F500
G01 X113.2985 Y110.0000
G01 X106.7015
G01 X107.4598 Y107.9000
G01 X112.5402
G01 X112.7487 Y107.6820
G02 X107.1601 Y112.2104 I-2.7508 J2.3178
G02 X112.7487 Y107.6820 I2.8397 J-2.2082
G01 X112.5402 Y107.9000
G01 X112.0402 Z-2.7500 F100
G01 X112.5402 Z-3.0000
G01 X107.4598 F500
G01 X106.7015 Y110.0000
G01 X113.2985
G01 X112.5402 Y112.1000
G01 X107.4598
G01 X107.2513 Y112.3180
G02 X112.8399 Y107.7896 I2.7508 J-2.3178
G02 X107.2513 Y112.3180 I-2.8397 J2.2082
G01 X107.4598 Y112.1000
G01 X107.9598 Z-3.2500 F100
G01 X107.4598 Z-3.5000
G01 X112.5402 F500
G01 X113.2985 Y110.0000
G01 X106.7015
G01 X107.4598 Y107.9000
G01 X112.5402
G01 X112.7487 Y107.6820
G02 X107.1601 Y112.2104 I-2.7508 J2.3178
G02 X112.7487 Y107.6820 I2.8397 J-2.2082
G01 X112.5402 Y107.9000
G00 Z5.0000


(No. 8: Part 11)
G00 X146.7015 Y110.0000 Z5.0000
G00 Z0.5000
G01 Z0.0000 F100
G01 X147.2015 Z-0.2500
G01 X146.7015 Z-0.5000
G01 X153.2985 F500
G01 X152.5402 Y112.1000
G01 X147.4598
G01 Y107.9000
G01 X152.5402
G01 X152.7487 Y107.6820
G02 X147.1601 Y112.2104 I-2.7508 J2.3178
G02 X152.7487 Y107.6820 I2.8397 J-2.2082
G01 X152.5402 Y107.9000
G01 X152.0402 Z-0.7500 F100
G01 X152.5402 Z-1.0000
G01 X147.4598 F500
G01 X146.7015 Y110.0000
G01 X153.2985
G01 X152.5402 Y112.1000
G01 X147.4598
G01 X147.2513 Y112.3180
G02 X152.8399 Y107.7896 I2.7508 J-2.3178
G02 X147.2513 Y112.3180 I-2.8397 J2.2082
G01 X147.4598 Y112.1000
G01 X147.9598 Z-1.2500 F100
G01 X147.4598 Z-1.5000
G01 X152.5402 F500
G01 X153.2985 Y110.0000
G01 X146.7015
G01 X147.4598 Y107.9000
G01 X152.5402
G01 X152.7487 Y107.6820
G02 X147.1601 Y112.2104 I-2.7508 J2.3178
G02 X152.7487 Y107.6820 I2.8397 J-2.2082
G01 X152.5402 Y107.9000
G01 X152.0402 Z-1.7500 F100
G01 X152.5402 Z-2.0000
G01 X147.4598 F500
G01 X146.7015 Y110.0000
G01 X153.2985
G01 X152.5402 Y112.1000
G01 X147.4598
G01 X147.2513 Y112.3180
G02 X152.8399 Y107.7896 I2.7508 J-2.3178
G02 X147.2513 Y112.3180 I-2.8397 J2.2082
G01 X147.4598 Y112.1000
G01 X147.9598 Z-2.2500 F100
G01 X147.4598 Z-2.5000
G01 X152.5402 F500
G01 X153.2985 Y110.0000
G01 X146.7015
G01 X147.4598 Y107.9000
G01 X152.5402
G01 X152.7487 Y107.6820
G02 X147.1601 Y112.2104 I-2.7508 J2.3178
G02 X152.7487 Y107.6820 I2.8397 J-2.2082
G01 X152.5402 Y107.9000
G01 X152.0402 Z-2.7500 F100
G01 X152.5402 Z-3.0000
G01 X147.4598 F500
G01 X146.7015 Y110.0000
G01 X153.2985
G01 X152.5402 Y112.1000
G01 X147.4598
G01 X147.2513 Y112.3180
G02 X152.8399 Y107.7896 I2.7508 J-2.3178
G02 X147.2513 Y112.3180 I-2.8397 J2.2082
G01 X147.4598 Y112.1000
G01 X147.9598 Z-3.2500 F100
G01 X147.4598 Z-3.5000
G01 X152.5402 F500
G01 X153.2985 Y110.0000
G01 X146.7015
G01 X147.4598 Y107.9000
G01 X152.5402
G01 X152.7487 Y107.6820
G02 X147.1601 Y112.2104 I-2.7508 J2.3178
G02 X152.7487 Y107.6820 I2.8397 J-2.2082
G01 X152.5402 Y107.9000
G00 Z5.0000


(No. 9: Part 17)
G00 X174.9182 Y114.9443 Z5.0000
G00 Z0.5000
G01 Z0.0000 F100
G02 X175.0818 Y115.0557 Z-0.1554 I0.0818 J0.0557
G02 X175.0252 Y114.9043 Z-0.2500 I-0.0818 J-0.0557
G03 X175.0818 Y115.0557 Z-0.3446 I-0.0252 J0.0957
G03 X174.9182 Y114.9443 Z-0.5000 I-0.0818 J-0.0557
G02 X175.0818 Y115.0557 I0.0818 J0.0557 F500
G02 X174.9182 Y114.9443 I-0.0818 J-0.0557
G02 X175.0818 Y115.0557 Z-0.6554 I0.0818 J0.0557 F100
G02 X175.0252 Y114.9043 Z-0.7500 I-0.0818 J-0.0557
G03 X175.0818 Y115.0557 Z-0.8446 I-0.0252 J0.0957
G03 X174.9182 Y114.9443 Z-1.0000 I-0.0818 J-0.0557
G02 X175.0818 Y115.0557 I0.0818 J0.0557 F500
G02 X174.9182 Y114.9443 I-0.0818 J-0.0557
G02 X175.0818 Y115.0557 Z-1.1554 I0.0818 J0.0557 F100
G02 X175.0252 Y114.9043 Z-1.2500 I-0.0818 J-0.0557
G03 X175.0818 Y115.0557 Z-1.3446 I-0.0252 J0.0957
G03 X174.9182 Y114.9443 Z-1.5000 I-0.0818 J-0.0557
G02 X175.0818 Y115.0557 I0.0818 J0.0557 F500
G02 X174.9182 Y114.9443 I-0.0818 J-0.0557
G02 X175.0818 Y115.0557 Z-1.6554 I0.0818 J0.0557 F100
G02 X175.0252 Y114.9043 Z-1.7500 I-0.0818 J-0.0557
G03 X175.0818 Y115.0557 Z-1.8446 I-0.0252 J0.0957
G03 X174.9182 Y114.9443 Z-2.0000 I-0.0818 J-0.0557
G02 X175.0818 Y115.0557 I0.0818 J0.0557 F500
G02 X174.9182 Y114.9443 I-0.0818 J-0.0557
G02 X175.0818 Y115.0557 Z-2.1554 I0.0818 J0.0557 F100
G02 X175.0252 Y114.9043 Z-2.2500 I-0.0818 J-0.0557
G03 X175.0818 Y115.0557 Z-2.3446 I-0.0252 J0.0957
G03 X174.9182 Y114.9443 Z-2.5000 I-0.0818 J-0.0557
G02 X175.0818 Y115.0557 I0.0818 J0.0557 F500
G02 X174.9182 Y114.9443 I-0.0818 J-0.0557
G02 X175.0818 Y115.0557 Z-2.6554 I0.0818 J0.0557 F100
G02 X175.0252 Y114.9043 Z-2.7500 I-0.0818 J-0.0557
G03 X175.0818 Y115.0557 Z-2.8446 I-0.0252 J0.0957
G03 X174.9182 Y114.9443 Z-3.0000 I-0.0818 J-0.0557
G02 X175.0818 Y115.0557 I0.0818 J0.0557 F500
G02 X174.9182 Y114.9443 I-0.0818 J-0.0557
G02 X175.0818 Y115.0557 Z-3.1554 I0.0818 J0.0557 F100
G02 X175.0252 Y114.9043 Z-3.2500 I-0.0818 J-0.0557
G03 X175.0818 Y115.0557 Z-3.3446 I-0.0252 J0.0957
G03 X174.9182 Y114.9443 Z-3.5000 I-0.0818 J-0.0557
G02 X175.0818 Y115.0557 I0.0818 J0.0557 F500
G02 X174.9182 Y114.9443 I-0.0818 J-0.0557
G00 Z5.0000


(No. 10: Part 7)
G00 X147.8971 Y64.6146 Z5.0000
G00 Z0.5000
G01 Z0.0000 F100
G02 X147.4096 Y64.7252 Z-0.2500 I2.0986 J10.3852
G03 X147.8971 Y64.6146 Z-0.5000 I2.5861 J10.2747
G02 X147.3380 Y85.2563 I2.0986 J10.3852 F500
G02 X152.2906 Y85.3486 I2.6674 J-10.2019
G02 X152.8475 Y64.7906 I-2.2902 J-10.3486
G02 X147.8971 Y64.6146 I-2.8384 J10.1339
G02 X147.4096 Y64.7252 Z-0.7500 I2.0986 J10.3852 F100
G03 X147.8971 Y64.6146 Z-1.0000 I2.5861 J10.2747
G02 X147.3380 Y85.2563 I2.0986 J10.3852 F500
G02 X152.2906 Y85.3486 I2.6674 J-10.2019
G02 X152.8475 Y64.7906 I-2.2902 J-10.3486
G02 X147.8971 Y64.6146 I-2.8384 J10.1339
G02 X147.4096 Y64.7252 Z-1.2500 I2.0986 J10.3852 F100
G03 X147.8971 Y64.6146 Z-1.5000 I2.5861 J10.2747
G02 X147.3380 Y85.2563 I2.0986 J10.3852 F500
G02 X152.2906 Y85.3486 I2.6674 J-10.2019
G02 X152.8475 Y64.7906 I-2.2902 J-10.3486
G02 X147.8971 Y64.6146 I-2.8384 J10.1339
G02 X147.4096 Y64.7252 Z-1.7500 I2.0986 J10.3852 F100
G03 X147.8971 Y64.6146 Z-2.0000 I2.5861 J10.2747
G02 X147.3380 Y85.2563 I2.0986 J10.3852 F500
G00 Z-1.5000
G02 X152.2906 Y85.3486 I2.6674 J-10.2019
G02 X152.7761 Y85.2291 Z-1.7500 I-2.2902 J-10.3486 F100
G03 X152.2906 Y85.3486 Z-2.0000 I-2.7757 J-10.2291
G02 X152.8475 Y64.7906 I-2.2902 J-10.3486 F500
G00 Z-1.5000
G02 X147.8971 Y64.6146 I-2.8384 J10.1339
G01 Z-2.0000 F100
G02 X147.4096 Y64.7252 Z-2.2500 I2.0986 J10.3852
G03 X147.8971 Y64.6146 Z-2.5000 I2.5861 J10.2747
G02 X147.3380 Y85.2563 I2.0986 J10.3852 F500
G00 Z-1.5000
G02 X152.2906 Y85.3486 I2.6674 J-10.2019
G01 Z-2.0000 F100
G02 X152.7761 Y85.2291 Z-2.2500 I-2.2902 J-10.3486
G03 X152.2906 Y85.3486 Z-2.5000 I-2.7757 J-10.2291
G02 X152.8475 Y64.7906 I-2.2902 J-10.3486 F500
G00 Z-1.5000
G02 X147.8971 Y64.6146 I-2.8384 J10.1339
G00 Z-2.0000
G01 Z-2.5000 F100
G02 X147.4096 Y64.7252 Z-2.7500 I2.0986 J10.3852
G03 X147.8971 Y64.6146 Z-3.0000 I2.5861 J10.2747
G02 X147.3380 Y85.2563 I2.0986 J10.3852 F500
G00 Z-1.5000
G02 X152.2906 Y85.3486 I2.6674 J-10.2019
G00 Z-2.0000
G01 Z-2.5000 F100
G02 X152.7761 Y85.2291 Z-2.7500 I-2.2902 J-10.3486
G03 X152.2906 Y85.3486 Z-3.0000 I-2.7757 J-10.2291
G02 X152.8475 Y64.7906 I-2.2902 J-10.3486 F500
G00 Z-1.5000
G02 X147.8971 Y64.6146 I-2.8384 J10.1339
G00 Z-2.5000
G01 Z-3.0000 F100
G02 X147.4096 Y64.7252 Z-3.2500 I2.0986 J10.3852
G03 X147.8971 Y64.6146 Z-3.5000 I2.5861 J10.2747
G02 X147.3380 Y85.2563 I2.0986 J10.3852 F500
G00 Z-1.5000
G02 X152.2906 Y85.3486 I2.6674 J-10.2019
G00 Z-2.5000
G01 Z-3.0000 F100
G02 X152.7761 Y85.2291 Z-3.2500 I-2.2902 J-10.3486
G03 X152.2906 Y85.3486 Z-3.5000 I-2.7757 J-10.2291
G02 X152.8475 Y64.7906 I-2.2902 J-10.3486 F500
G00 Z-1.5000
G02 X147.8971 Y64.6146 I-2.8384 J10.1339
G00 Z5.0000


(No. 11: Part 3)
G00 X146.7866 Y29.9029 Z5.0000
G00 Z0.5000
G01 Z0.0000 F100
G02 X146.3139 Y30.0656 Z-0.2500 I3.2113 J10.0989
G03 X146.7866 Y29.9029 Z-0.5000 I3.6840 J9.9362
G02 X148.8417 Y50.5356 I3.2113 J10.0989 F500
G02 X153.7553 Y49.9083 I1.1615 J-10.4596
G02 X151.7270 Y29.5425 I-3.7530 J-9.9101
G02 X146.7866 Y29.9029 I-1.7261 J10.3814
G02 X146.3139 Y30.0656 Z-0.7500 I3.2113 J10.0989 F100
G03 X146.7866 Y29.9029 Z-1.0000 I3.6840 J9.9362
G02 X148.8417 Y50.5356 I3.2113 J10.0989 F500
G02 X153.7553 Y49.9083 I1.1615 J-10.4596
G02 X151.7270 Y29.5425 I-3.7530 J-9.9101
G02 X146.7866 Y29.9029 I-1.7261 J10.3814
G02 X146.3139 Y30.0656 Z-1.2500 I3.2113 J10.0989 F100
G03 X146.7866 Y29.9029 Z-1.5000 I3.6840 J9.9362
G02 X148.8417 Y50.5356 I3.2113 J10.0989 F500
G02 X153.7553 Y49.9083 I1.1615 J-10.4596
G02 X151.7270 Y29.5425 I-3.7530 J-9.9101
G02 X146.7866 Y29.9029 I-1.7261 J10.3814
G02 X146.3139 Y30.0656 Z-1.7500 I3.2113 J10.0989 F100
G03 X146.7866 Y29.9029 Z-2.0000 I3.6840 J9.9362
G02 X148.8417 Y50.5356 I3.2113 J10.0989 F500
G00 Z-1.5000
G02 X153.7553 Y49.9083 I1.1615 J-10.4596
G02 X154.2186 Y49.7203 Z-1.7500 I-3.7530 J-9.9101 F100
G03 X153.7553 Y49.9083 Z-2.0000 I-4.2163 J-9.7221
G02 X151.7270 Y29.5425 I-3.7530 J-9.9101 F500
G00 Z-1.5000
G02 X146.7866 Y29.9029 I-1.7261 J10.3814
G01 Z-2.0000 F100
G02 X146.3139 Y30.0656 Z-2.2500 I3.2113 J10.0989
G03 X146.7866 Y29.9029 Z-2.5000 I3.6840 J9.9362
G02 X148.8417 Y50.5356 I3.2113 J10.0989 F500
G00 Z-1.5000
G02 X153.7553 Y49.9083 I1.1615 J-10.4596
G01 Z-2.0000 F100
G02 X154.2186 Y49.7203 Z-2.2500 I-3.7530 J-9.9101
G03 X153.7553 Y49.9083 Z-2.5000 I-4.2163 J-9.7221
G02 X151.7270 Y29.5425 I-3.7530 J-9.9101 F500
G00 Z-1.5000
G02 X146.7866 Y29.9029 I-1.7261 J10.3814
G00 Z-2.0000
G01 Z-2.5000 F100
G02 X146.3139 Y30.0656 Z-2.7500 I3.2113 J10.0989
G03 X146.7866 Y29.9029 Z-3.0000 I3.6840 J9.9362
G02 X148.8417 Y50.5356 I3.2113 J10.0989 F500
G00 Z-1.5000
G02 X153.7553 Y49.9083 I1.1615 J-10.4596
G00 Z-2.0000
G01 Z-2.5000 F100
G02 X154.2186 Y49.7203 Z-2.7500 I-3.7530 J-9.9101
G03 X153.7553 Y49.9083 Z-3.0000 I-4.2163 J-9.7221
G02 X151.7270 Y29.5425 I-3.7530 J-9.9101 F500
G00 Z-1.5000
G02 X146.7866 Y29.9029 I-1.7261 J10.3814
G00 Z-2.5000
G01 Z-3.0000 F100
G02 X146.3139 Y30.0656 Z-3.2500 I3.2113 J10.0989
G03 X146.7866 Y29.9029 Z-3.5000 I3.6840 J9.9362
G02 X148.8417 Y50.5356 I3.2113 J10.0989 F500
G00 Z-1.5000
G02 X153.7553 Y49.9083 I1.1615 J-10.4596
G00 Z-2.5000
G01 Z-3.0000 F100
G02 X154.2186 Y49.7203 Z-3.2500 I-3.7530 J-9.9101
G03 X153.7553 Y49.9083 Z-3.5000 I-4.2163 J-9.7221
G02 X151.7270 Y29.5425 I-3.7530 J-9.9101 F500
G00 Z-1.5000
G02 X146.7866 Y29.9029 I-1.7261 J10.3814
G00 Z5.0000


(No. 12: Part 16)
G00 X174.9022 Y24.9853 Z5.0000
G00 Z0.5000
G01 Z0.0000 F100
G02 X175.0978 Y25.0147 Z-0.1554 I0.0978 J0.0147
G02 X174.9812 Y24.9029 Z-0.2500 I-0.0978 J-0.0147
G03 X175.0978 Y25.0147 Z-0.3446 I0.0188 J0.0971
G03 X174.9022 Y24.9853 Z-0.5000 I-0.0978 J-0.0147
G02 X175.0978 Y25.0147 I0.0978 J0.0147 F500
G02 X174.9022 Y24.9853 I-0.0978 J-0.0147
G02 X175.0978 Y25.0147 Z-0.6554 I0.0978 J0.0147 F100
G02 X174.9812 Y24.9029 Z-0.7500 I-0.0978 J-0.0147
G03 X175.0978 Y25.0147 Z-0.8446 I0.0188 J0.0971
G03 X174.9022 Y24.9853 Z-1.0000 I-0.0978 J-0.0147
G02 X175.0978 Y25.0147 I0.0978 J0.0147 F500
G02 X174.9022 Y24.9853 I-0.0978 J-0.0147
G02 X175.0978 Y25.0147 Z-1.1554 I0.0978 J0.0147 F100
G02 X174.9812 Y24.9029 Z-1.2500 I-0.0978 J-0.0147
G03 X175.0978 Y25.0147 Z-1.3446 I0.0188 J0.0971
G03 X174.9022 Y24.9853 Z-1.5000 I-0.0978 J-0.0147
G02 X175.0978 Y25.0147 I0.0978 J0.0147 F500
G02 X174.9022 Y24.9853 I-0.0978 J-0.0147
G02 X175.0978 Y25.0147 Z-1.6554 I0.0978 J0.0147 F100
G02 X174.9812 Y24.9029 Z-1.7500 I-0.0978 J-0.0147
G03 X175.0978 Y25.0147 Z-1.8446 I0.0188 J0.0971
G03 X174.9022 Y24.9853 Z-2.0000 I-0.0978 J-0.0147
G02 X175.0978 Y25.0147 I0.0978 J0.0147 F500
G02 X174.9022 Y24.9853 I-0.0978 J-0.0147
G02 X175.0978 Y25.0147 Z-2.1554 I0.0978 J0.0147 F100
G02 X174.9812 Y24.9029 Z-2.2500 I-0.0978 J-0.0147
G03 X175.0978 Y25.0147 Z-2.3446 I0.0188 J0.0971
G03 X174.9022 Y24.9853 Z-2.5000 I-0.0978 J-0.0147
G02 X175.0978 Y25.0147 I0.0978 J0.0147 F500
G02 X174.9022 Y24.9853 I-0.0978 J-0.0147
G02 X175.0978 Y25.0147 Z-2.6554 I0.0978 J0.0147 F100
G02 X174.9812 Y24.9029 Z-2.7500 I-0.0978 J-0.0147
G03 X175.0978 Y25.0147 Z-2.8446 I0.0188 J0.0971
G03 X174.9022 Y24.9853 Z-3.0000 I-0.0978 J-0.0147
G02 X175.0978 Y25.0147 I0.0978 J0.0147 F500
G02 X174.9022 Y24.9853 I-0.0978 J-0.0147
G02 X175.0978 Y25.0147 Z-3.1554 I0.0978 J0.0147 F100
G02 X174.9812 Y24.9029 Z-3.2500 I-0.0978 J-0.0147
G03 X175.0978 Y25.0147 Z-3.3446 I0.0188 J0.0971
G03 X174.9022 Y24.9853 Z-3.5000 I-0.0978 J-0.0147
G02 X175.0978 Y25.0147 I0.0978 J0.0147 F500
G02 X174.9022 Y24.9853 I-0.0978 J-0.0147
G00 Z5.0000


(No. 13: Part 5)
G00 X107.3380 Y29.7437 Z5.0000
G00 Z0.5000
G01 Z0.0000 F100
G02 X106.8571 Y29.8806 Z-0.2500 I2.6597 J10.2579
G03 X107.3380 Y29.7437 Z-0.5000 I3.1406 J10.1210
G02 X107.7094 Y50.3486 I2.6597 J10.2579 F500
G02 X112.6620 Y50.2563 I2.2856 J-10.2727
G02 X112.2906 Y29.6514 I-2.6597 J-10.2579
G02 X107.3380 Y29.7437 I-2.2856 J10.2727
G02 X106.8571 Y29.8806 Z-0.7500 I2.6597 J10.2579 F100
G03 X107.3380 Y29.7437 Z-1.0000 I3.1406 J10.1210
G02 X107.7094 Y50.3486 I2.6597 J10.2579 F500
G02 X112.6620 Y50.2563 I2.2856 J-10.2727
G02 X112.2906 Y29.6514 I-2.6597 J-10.2579
G02 X107.3380 Y29.7437 I-2.2856 J10.2727
G02 X106.8571 Y29.8806 Z-1.2500 I2.6597 J10.2579 F100
G03 X107.3380 Y29.7437 Z-1.5000 I3.1406 J10.1210
G02 X107.7094 Y50.3486 I2.6597 J10.2579 F500
G02 X112.6620 Y50.2563 I2.2856 J-10.2727
G02 X112.2906 Y29.6514 I-2.6597 J-10.2579
G02 X107.3380 Y29.7437 I-2.2856 J10.2727
G02 X106.8571 Y29.8806 Z-1.7500 I2.6597 J10.2579 F100
G03 X107.3380 Y29.7437 Z-2.0000 I3.1406 J10.1210
G02 X107.7094 Y50.3486 I2.6597 J10.2579 F500
G00 Z-1.5000
G02 X112.6620 Y50.2563 I2.2856 J-10.2727
G02 X113.1429 Y50.1194 Z-1.7500 I-2.6597 J-10.2579 F100
G03 X112.6620 Y50.2563 Z-2.0000 I-3.1406 J-10.1210
G02 X112.2906 Y29.6514 I-2.6597 J-10.2579 F500
G00 Z-1.5000
G02 X107.3380 Y29.7437 I-2.2856 J10.2727
G01 Z-2.0000 F100
G02 X106.8571 Y29.8806 Z-2.2500 I2.6597 J10.2579
G03 X107.3380 Y29.7437 Z-2.5000 I3.1406 J10.1210
G02 X107.7094 Y50.3486 I2.6597 J10.2579 F500
G00 Z-1.5000
G02 X112.6620 Y50.2563 I2.2856 J-10.2727
G01 Z-2.0000 F100
G02 X113.1429 Y50.1194 Z-2.2500 I-2.6597 J-10.2579
G03 X112.6620 Y50.2563 Z-2.5000 I-3.1406 J-10.1210
G02 X112.2906 Y29.6514 I-2.6597 J-10.2579 F500
G00 Z-1.5000
G02 X107.3380 Y29.7437 I-2.2856 J10.2727
G00 Z-2.0000
G01 Z-2.5000 F100
G02 X106.8571 Y29.8806 Z-2.7500 I2.6597 J10.2579
G03 X107.3380 Y29.7437 Z-3.0000 I3.1406 J10.1210
G02 X107.7094 Y50.3486 I2.6597 J10.2579 F500
G00 Z-1.5000
G02 X112.6620 Y50.2563 I2.2856 J-10.2727
G00 Z-2.0000
G01 Z-2.5000 F100
G02 X113.1429 Y50.1194 Z-2.7500 I-2.6597 J-10.2579
G03 X112.6620 Y50.2563 Z-3.0000 I-3.1406 J-10.1210
G02 X112.2906 Y29.6514 I-2.6597 J-10.2579 F500
G00 Z-1.5000
G02 X107.3380 Y29.7437 I-2.2856 J10.2727
G00 Z-2.5000
G01 Z-3.0000 F100
G02 X106.8571 Y29.8806 Z-3.2500 I2.6597 J10.2579
G03 X107.3380 Y29.7437 Z-3.5000 I3.1406 J10.1210
G02 X107.7094 Y50.3486 I2.6597 J10.2579 F500
G00 Z-1.5000
G02 X112.6620 Y50.2563 I2.2856 J-10.2727
G00 Z-2.5000
G01 Z-3.0000 F100
G02 X113.1429 Y50.1194 Z-3.2500 I-2.6597 J-10.2579
G03 X112.6620 Y50.2563 Z-3.5000 I-3.1406 J-10.1210
G02 X112.2906 Y29.6514 I-2.6597 J-10.2579 F500
G00 Z-1.5000
G02 X107.3380 Y29.7437 I-2.2856 J10.2727
G00 Z5.0000


(No. 14: Part 9)
G00 X106.6952 Y64.9310 Z5.0000
G00 Z0.5000
G01 Z0.0000 F100
G02 X106.2239 Y65.0979 Z-0.2500 I3.3014 J10.0686
G03 X106.6952 Y64.9310 Z-0.5000 I3.7726 J9.9017
G02 X108.4625 Y85.4840 I3.3014 J10.0686 F500
G02 X113.3961 Y85.0403 I1.5488 J-10.4305
G02 X111.6323 Y64.5289 I-3.3945 J-10.0396
G02 X106.6952 Y64.9310 I-1.6380 J10.4012
G02 X106.2239 Y65.0979 Z-0.7500 I3.3014 J10.0686 F100
G03 X106.6952 Y64.9310 Z-1.0000 I3.7726 J9.9017
G02 X108.4625 Y85.4840 I3.3014 J10.0686 F500
G02 X113.3961 Y85.0403 I1.5488 J-10.4305
G02 X111.6323 Y64.5289 I-3.3945 J-10.0396
G02 X106.6952 Y64.9310 I-1.6380 J10.4012
G02 X106.2239 Y65.0979 Z-1.2500 I3.3014 J10.0686 F100
G03 X106.6952 Y64.9310 Z-1.5000 I3.7726 J9.9017
G02 X108.4625 Y85.4840 I3.3014 J10.0686 F500
G02 X113.3961 Y85.0403 I1.5488 J-10.4305
G02 X111.6323 Y64.5289 I-3.3945 J-10.0396
G02 X106.6952 Y64.9310 I-1.6380 J10.4012
G02 X106.2239 Y65.0979 Z-1.7500 I3.3014 J10.0686 F100
G03 X106.6952 Y64.9310 Z-2.0000 I3.7726 J9.9017
G02 X108.4625 Y85.4840 I3.3014 J10.0686 F500
G00 Z-1.5000
G02 X113.3961 Y85.0403 I1.5488 J-10.4305
G02 X113.8658 Y84.8691 Z-1.7500 I-3.3945 J-10.0396 F100
G03 X113.3961 Y85.0403 Z-2.0000 I-3.8642 J-9.8684
G02 X111.6323 Y64.5289 I-3.3945 J-10.0396 F500
G00 Z-1.5000
G02 X106.6952 Y64.9310 I-1.6380 J10.4012
G01 Z-2.0000 F100
G02 X106.2239 Y65.0979 Z-2.2500 I3.3014 J10.0686
G03 X106.6952 Y64.9310 Z-2.5000 I3.7726 J9.9017
G02 X108.4625 Y85.4840 I3.3014 J10.0686 F500
G00 Z-1.5000
G02 X113.3961 Y85.0403 I1.5488 J-10.4305
G01 Z-2.0000 F100
G02 X113.8658 Y84.8691 Z-2.2500 I-3.3945 J-10.0396
G03 X113.3961 Y85.0403 Z-2.5000 I-3.8642 J-9.8684
G02 X111.6323 Y64.5289 I-3.3945 J-10.0396 F500
G00 Z-1.5000
G02 X106.6952 Y64.9310 I-1.6380 J10.4012
G00 Z-2.0000
G01 Z-2.5000 F100
G02 X106.2239 Y65.0979 Z-2.7500 I3.3014 J10.0686
G03 X106.6952 Y64.9310 Z-3.0000 I3.7726 J9.9017
G02 X108.4625 Y85.4840 I3.3014 J10.0686 F500
G00 Z-1.5000
G02 X113.3961 Y85.0403 I1.5488 J-10.4305
G00 Z-2.0000
G01 Z-2.5000 F100
G02 X113.8658 Y84.8691 Z-2.7500 I-3.3945 J-10.0396
G03 X113.3961 Y85.0403 Z-3.0000 I-3.8642 J-9.8684
G02 X111.6323 Y64.5289 I-3.3945 J-10.0396 F500
G00 Z-1.5000
G02 X106.6952 Y64.9310 I-1.6380 J10.4012
G00 Z-2.5000
G01 Z-3.0000 F100
G02 X106.2239 Y65.0979 Z-3.2500 I3.3014 J10.0686
G03 X106.6952 Y64.9310 Z-3.5000 I3.7726 J9.9017
G02 X108.4625 Y85.4840 I3.3014 J10.0686 F500
G00 Z-1.5000
G02 X113.3961 Y85.0403 I1.5488 J-10.4305
G00 Z-2.5000
G01 Z-3.0000 F100
G02 X113.8658 Y84.8691 Z-3.2500 I-3.3945 J-10.0396
G03 X113.3961 Y85.0403 Z-3.5000 I-3.8642 J-9.8684
G02 X111.6323 Y64.5289 I-3.3945 J-10.0396 F500
G00 Z-1.5000
G02 X106.6952 Y64.9310 I-1.6380 J10.4012
G00 Z5.0000


(No. 15: Part 8)
G00 X67.7094 Y64.6514 Z5.0000
G00 Z0.5000
G01 Z0.0000 F100
G02 X67.2239 Y64.7708 Z-0.2500 I2.2883 J10.3472
G03 X67.7094 Y64.6514 Z-0.5000 I2.7738 J10.2278
G02 X68.4625 Y85.4840 I2.2883 J10.3472 F500
G02 X73.3961 Y85.0403 I1.5488 J-10.4305
G02 X72.6620 Y64.7437 I-3.3934 J-10.0388
G02 X67.7094 Y64.6514 I-2.6674 J10.2019
G02 X67.2239 Y64.7708 Z-0.7500 I2.2883 J10.3472 F100
G03 X67.7094 Y64.6514 Z-1.0000 I2.7738 J10.2278
G02 X68.4625 Y85.4840 I2.2883 J10.3472 F500
G02 X73.3961 Y85.0403 I1.5488 J-10.4305
G02 X72.6620 Y64.7437 I-3.3934 J-10.0388
G02 X67.7094 Y64.6514 I-2.6674 J10.2019
G02 X67.2239 Y64.7708 Z-1.2500 I2.2883 J10.3472 F100
G03 X67.7094 Y64.6514 Z-1.5000 I2.7738 J10.2278
G02 X68.4625 Y85.4840 I2.2883 J10.3472 F500
G02 X73.3961 Y85.0403 I1.5488 J-10.4305
G02 X72.6620 Y64.7437 I-3.3934 J-10.0388
G02 X67.7094 Y64.6514 I-2.6674 J10.2019
G02 X67.2239 Y64.7708 Z-1.7500 I2.2883 J10.3472 F100
G03 X67.7094 Y64.6514 Z-2.0000 I2.7738 J10.2278
G02 X68.4625 Y85.4840 I2.2883 J10.3472 F500
G00 Z-1.5000
G02 X73.3961 Y85.0403 I1.5488 J-10.4305
G02 X73.8658 Y84.8691 Z-1.7500 I-3.3934 J-10.0388 F100
G03 X73.3961 Y85.0403 Z-2.0000 I-3.8632 J-9.8676
G02 X72.6620 Y64.7437 I-3.3934 J-10.0388 F500
G00 Z-1.5000
G02 X67.7094 Y64.6514 I-2.6674 J10.2019
G01 Z-2.0000 F100
G02 X67.2239 Y64.7708 Z-2.2500 I2.2883 J10.3472
G03 X67.7094 Y64.6514 Z-2.5000 I2.7738 J10.2278
G02 X68.4625 Y85.4840 I2.2883 J10.3472 F500
G00 Z-1.5000
G02 X73.3961 Y85.0403 I1.5488 J-10.4305
G01 Z-2.0000 F100
G02 X73.8658 Y84.8691 Z-2.2500 I-3.3934 J-10.0388
G03 X73.3961 Y85.0403 Z-2.5000 I-3.8632 J-9.8676
G02 X72.6620 Y64.7437 I-3.3934 J-10.0388 F500
G00 Z-1.5000
G02 X67.7094 Y64.6514 I-2.6674 J10.2019
G00 Z-2.0000
G01 Z-2.5000 F100
G02 X67.2239 Y64.7708 Z-2.7500 I2.2883 J10.3472
G03 X67.7094 Y64.6514 Z-3.0000 I2.7738 J10.2278
G02 X68.4625 Y85.4840 I2.2883 J10.3472 F500
G00 Z-1.5000
G02 X73.3961 Y85.0403 I1.5488 J-10.4305
G00 Z-2.0000
G01 Z-2.5000 F100
G02 X73.8658 Y84.8691 Z-2.7500 I-3.3934 J-10.0388
G03 X73.3961 Y85.0403 Z-3.0000 I-3.8632 J-9.8676
G02 X72.6620 Y64.7437 I-3.3934 J-10.0388 F500
G00 Z-1.5000
G02 X67.7094 Y64.6514 I-2.6674 J10.2019
G00 Z-2.5000
G01 Z-3.0000 F100
G02 X67.2239 Y64.7708 Z-3.2500 I2.2883 J10.3472
G03 X67.7094 Y64.6514 Z-3.5000 I2.7738 J10.2278
G02 X68.4625 Y85.4840 I2.2883 J10.3472 F500
G00 Z-1.5000
G02 X73.3961 Y85.0403 I1.5488 J-10.4305
G00 Z-2.5000
G01 Z-3.0000 F100
G02 X73.8658 Y84.8691 Z-3.2500 I-3.3934 J-10.0388
G03 X73.3961 Y85.0403 Z-3.5000 I-3.8632 J-9.8676
G02 X72.6620 Y64.7437 I-3.3934 J-10.0388 F500
G00 Z-1.5000
G02 X67.7094 Y64.6514 I-2.6674 J10.2019
G00 Z5.0000


(No. 16: Part 4)
G00 X67.3380 Y29.7437 Z5.0000
G00 Z0.5000
G01 Z0.0000 F100
G02 X66.8571 Y29.8805 Z-0.2500 I2.6576 J10.2563
G03 X67.3380 Y29.7437 Z-0.5000 I3.1384 J10.1195
G02 Y50.2563 I2.6576 J10.2563 F500
G02 X72.2906 Y50.3486 I2.6674 J-10.2019
G02 Y29.6514 I-2.2902 J-10.3486
G02 X67.3380 Y29.7437 I-2.2856 J10.2727
G02 X66.8571 Y29.8805 Z-0.7500 I2.6576 J10.2563 F100
G03 X67.3380 Y29.7437 Z-1.0000 I3.1384 J10.1195
G02 Y50.2563 I2.6576 J10.2563 F500
G02 X72.2906 Y50.3486 I2.6674 J-10.2019
G02 Y29.6514 I-2.2902 J-10.3486
G02 X67.3380 Y29.7437 I-2.2856 J10.2727
G02 X66.8571 Y29.8805 Z-1.2500 I2.6576 J10.2563 F100
G03 X67.3380 Y29.7437 Z-1.5000 I3.1384 J10.1195
G02 Y50.2563 I2.6576 J10.2563 F500
G02 X72.2906 Y50.3486 I2.6674 J-10.2019
G02 Y29.6514 I-2.2902 J-10.3486
G02 X67.3380 Y29.7437 I-2.2856 J10.2727
G02 X66.8571 Y29.8805 Z-1.7500 I2.6576 J10.2563 F100
G03 X67.3380 Y29.7437 Z-2.0000 I3.1384 J10.1195
G02 Y50.2563 I2.6576 J10.2563 F500
G00 Z-1.5000
G02 X72.2906 Y50.3486 I2.6674 J-10.2019
G02 X72.7761 Y50.2291 Z-1.7500 I-2.2902 J-10.3486 F100
G03 X72.2906 Y50.3486 Z-2.0000 I-2.7757 J-10.2291
G02 Y29.6514 I-2.2902 J-10.3486 F500
G00 Z-1.5000
G02 X67.3380 Y29.7437 I-2.2856 J10.2727
G01 Z-2.0000 F100
G02 X66.8571 Y29.8805 Z-2.2500 I2.6576 J10.2563
G03 X67.3380 Y29.7437 Z-2.5000 I3.1384 J10.1195
G02 Y50.2563 I2.6576 J10.2563 F500
G00 Z-1.5000
G02 X72.2906 Y50.3486 I2.6674 J-10.2019
G01 Z-2.0000 F100
G02 X72.7761 Y50.2291 Z-2.2500 I-2.2902 J-10.3486
G03 X72.2906 Y50.3486 Z-2.5000 I-2.7757 J-10.2291
G02 Y29.6514 I-2.2902 J-10.3486 F500
G00 Z-1.5000
G02 X67.3380 Y29.7437 I-2.2856 J10.2727
G00 Z-2.0000
G01 Z-2.5000 F100
G02 X66.8571 Y29.8805 Z-2.7500 I2.6576 J10.2563
G03 X67.3380 Y29.7437 Z-3.0000 I3.1384 J10.1195
G02 Y50.2563 I2.6576 J10.2563 F500
G00 Z-1.5000
G02 X72.2906 Y50.3486 I2.6674 J-10.2019
G00 Z-2.0000
G01 Z-2.5000 F100
G02 X72.7761 Y50.2291 Z-2.7500 I-2.2902 J-10.3486
G03 X72.2906 Y50.3486 Z-3.0000 I-2.7757 J-10.2291
G02 Y29.6514 I-2.2902 J-10.3486 F500
G00 Z-1.5000
G02 X67.3380 Y29.7437 I-2.2856 J10.2727
G00 Z-2.5000
G01 Z-3.0000 F100
G02 X66.8571 Y29.8805 Z-3.2500 I2.6576 J10.2563
G03 X67.3380 Y29.7437 Z-3.5000 I3.1384 J10.1195
G02 Y50.2563 I2.6576 J10.2563 F500
G00 Z-1.5000
G02 X72.2906 Y50.3486 I2.6674 J-10.2019
G00 Z-2.5000
G01 Z-3.0000 F100
G02 X72.7761 Y50.2291 Z-3.2500 I-2.2902 J-10.3486
G03 X72.2906 Y50.3486 Z-3.5000 I-2.7757 J-10.2291
G02 Y29.6514 I-2.2902 J-10.3486 F500
G00 Z-1.5000
G02 X67.3380 Y29.7437 I-2.2856 J10.2727
G00 Z5.0000


(No. 17: Part 1)
G00 X-1.5000 Y67.5000 Z5.0000
G00 Z0.5000
G01 Z0.0000 F100
G01 Y67.0000 Z-0.2500
G01 Y67.5000 Z-0.5000
G01 Y0.0000 F500
G03 X0.0000 Y-1.5000 I1.5000 J0.0000
G01 X87.5000
G01 X92.5000
G01 X180.0000
G03 X181.5000 Y0.0000 I0.0000 J1.5000
G01 Y67.5000
G01 Y72.5000
G01 Y140.0000
G03 X180.0000 Y141.5000 I-1.5000 J0.0000
G01 X92.5000
G01 X87.5000
G01 X0.0000
G03 X-1.5000 Y140.0000 I0.0000 J-1.5000
G01 Y72.5000
G01 Y67.5000
G01 Y67.0000 Z-0.7500 F100
G01 Y67.5000 Z-1.0000
G01 Y0.0000 F500
G03 X0.0000 Y-1.5000 I1.5000 J0.0000
G01 X87.5000
G01 X92.5000
G01 X180.0000
G03 X181.5000 Y0.0000 I0.0000 J1.5000
G01 Y67.5000
G01 Y72.5000
G01 Y140.0000
G03 X180.0000 Y141.5000 I-1.5000 J0.0000
G01 X92.5000
G01 X87.5000
G01 X0.0000
G03 X-1.5000 Y140.0000 I0.0000 J-1.5000
G01 Y72.5000
G01 Y67.5000
G01 Y67.0000 Z-1.2500 F100
G01 Y67.5000 Z-1.5000
G01 Y0.0000 F500
G03 X0.0000 Y-1.5000 I1.5000 J0.0000
G01 X87.5000
G01 X92.5000
G01 X180.0000
G03 X181.5000 Y0.0000 I0.0000 J1.5000
G01 Y67.5000
G01 Y72.5000
G01 Y140.0000
G03 X180.0000 Y141.5000 I-1.5000 J0.0000
G01 X92.5000
G01 X87.5000
G01 X0.0000
G03 X-1.5000 Y140.0000 I0.0000 J-1.5000
G01 Y72.5000
G01 Y67.5000
G01 Y67.0000 Z-1.7500 F100
G01 Y67.5000 Z-2.0000
G01 Y0.0000 F500
G03 X0.0000 Y-1.5000 I1.5000 J0.0000
G01 X87.5000
G00 Z-1.5000
G01 X92.5000
G01 X93.0000 Z-1.7500 F100
G01 X92.5000 Z-2.0000
G01 X180.0000 F500
G03 X181.5000 Y0.0000 I0.0000 J1.5000
G01 Y67.5000
G00 Z-1.5000
G01 Y72.5000
G01 Y73.0000 Z-1.7500 F100
G01 Y72.5000 Z-2.0000
G01 Y140.0000 F500
G03 X180.0000 Y141.5000 I-1.5000 J0.0000
G01 X92.5000
G00 Z-1.5000
G01 X87.5000
G01 X87.0000 Z-1.7500 F100
G01 X87.5000 Z-2.0000
G01 X0.0000 F500
G03 X-1.5000 Y140.0000 I0.0000 J-1.5000
G01 Y72.5000
G00 Z-1.5000
G01 Y67.5000
G01 Z-2.0000 F100
G01 Y67.0000 Z-2.2500
G01 Y67.5000 Z-2.5000
G01 Y0.0000 F500
G03 X0.0000 Y-1.5000 I1.5000 J0.0000
G01 X87.5000
G00 Z-1.5000
G01 X92.5000
G01 Z-2.0000 F100
G01 X93.0000 Z-2.2500
G01 X92.5000 Z-2.5000
G01 X180.0000 F500
G03 X181.5000 Y0.0000 I0.0000 J1.5000
G01 Y67.5000
G00 Z-1.5000
G01 Y72.5000
G01 Z-2.0000 F100
G01 Y73.0000 Z-2.2500
G01 Y72.5000 Z-2.5000
G01 Y140.0000 F500
G03 X180.0000 Y141.5000 I-1.5000 J0.0000
G01 X92.5000
G00 Z-1.5000
G01 X87.5000
G01 Z-2.0000 F100
G01 X87.0000 Z-2.2500
G01 X87.5000 Z-2.5000
G01 X0.0000 F500
G03 X-1.5000 Y140.0000 I0.0000 J-1.5000
G01 Y72.5000
G00 Z-1.5000
G01 Y67.5000
G00 Z-2.0000
G01 Z-2.5000 F100
G01 Y67.0000 Z-2.7500
G01 Y67.5000 Z-3.0000
G01 Y0.0000 F500
G03 X0.0000 Y-1.5000 I1.5000 J0.0000
G01 X87.5000
G00 Z-1.5000
G01 X92.5000
G00 Z-2.0000
G01 Z-2.5000 F100
G01 X93.0000 Z-2.7500
G01 X92.5000 Z-3.0000
G01 X180.0000 F500
G03 X181.5000 Y0.0000 I0.0000 J1.5000
G01 Y67.5000
G00 Z-1.5000
G01 Y72.5000
G00 Z-2.0000
G01 Z-2.5000 F100
G01 Y73.0000 Z-2.7500
G01 Y72.5000 Z-3.0000
G01 Y140.0000 F500
G03 X180.0000 Y141.5000 I-1.5000 J0.0000
G01 X92.5000
G00 Z-1.5000
G01 X87.5000
G00 Z-2.0000
G01 Z-2.5000 F100
G01 X87.0000 Z-2.7500
G01 X87.5000 Z-3.0000
G01 X0.0000 F500
G03 X-1.5000 Y140.0000 I0.0000 J-1.5000
G01 Y72.5000
G00 Z-1.5000
G01 Y67.5000
G00 Z-2.5000
G01 Z-3.0000 F100
G01 Y67.0000 Z-3.2500
G01 Y67.5000 Z-3.5000
G01 Y0.0000 F500
G03 X0.0000 Y-1.5000 I1.5000 J0.0000
G01 X87.5000
G00 Z-1.5000
G01 X92.5000
G00 Z-2.5000
G01 Z-3.0000 F100
G01 X93.0000 Z-3.2500
G01 X92.5000 Z-3.5000
G01 X180.0000 F500
G03 X181.5000 Y0.0000 I0.0000 J1.5000
G01 Y67.5000
G00 Z-1.5000
G01 Y72.5000
G00 Z-2.5000
G01 Z-3.0000 F100
G01 Y73.0000 Z-3.2500
G01 Y72.5000 Z-3.5000
G01 Y140.0000 F500
G03 X180.0000 Y141.5000 I-1.5000 J0.0000
G01 X92.5000
G00 Z-1.5000
G01 X87.5000
G00 Z-2.5000
G01 Z-3.0000 F100
G01 X87.0000 Z-3.2500
G01 X87.5000 Z-3.5000
G01 X0.0000 F500
G03 X-1.5000 Y140.0000 I0.0000 J-1.5000
G01 Y72.5000
G00 Z-1.5000
G01 Y67.5000
G00 Z5.0000
G00 X0.0000 Y0.0000

M05
M30
