(Project Panel_Abajo)
(Created by Estlcam version 11 build 11,244)
(Machining time about 00:40:27 hours)

(Required tools:)
(End mill 3mm)

G90
G91.1
M03 S24000
G00 Z5.0000


(No. 1: Part 7)
G00 X4.9780 Y24.9035
G00 Z0.5000
G01 Z0.0000 F100 S24000
G02 X5.0362 Y25.0921 Z-0.1628 I0.0220 J0.0965
G02 X5.0836 Y24.9470 Z-0.2500 I-0.0362 J-0.0921
G03 X5.0362 Y25.0921 Z-0.3372 I-0.0836 J0.0530
G03 X4.9780 Y24.9035 Z-0.5000 I-0.0362 J-0.0921
G02 X5.0362 Y25.0921 I0.0220 J0.0965 F500
G02 X4.9780 Y24.9035 I-0.0362 J-0.0921
G02 X5.0362 Y25.0921 Z-0.6628 I0.0220 J0.0965 F100
G02 X5.0836 Y24.9470 Z-0.7500 I-0.0362 J-0.0921
G03 X5.0362 Y25.0921 Z-0.8372 I-0.0836 J0.0530
G03 X4.9780 Y24.9035 Z-1.0000 I-0.0362 J-0.0921
G02 X5.0362 Y25.0921 I0.0220 J0.0965 F500
G02 X4.9780 Y24.9035 I-0.0362 J-0.0921
G02 X5.0362 Y25.0921 Z-1.1628 I0.0220 J0.0965 F100
G02 X5.0836 Y24.9470 Z-1.2500 I-0.0362 J-0.0921
G03 X5.0362 Y25.0921 Z-1.3372 I-0.0836 J0.0530
G03 X4.9780 Y24.9035 Z-1.5000 I-0.0362 J-0.0921
G02 X5.0362 Y25.0921 I0.0220 J0.0965 F500
G02 X4.9780 Y24.9035 I-0.0362 J-0.0921
G02 X5.0362 Y25.0921 Z-1.6628 I0.0220 J0.0965 F100
G02 X5.0836 Y24.9470 Z-1.7500 I-0.0362 J-0.0921
G03 X5.0362 Y25.0921 Z-1.8372 I-0.0836 J0.0530
G03 X4.9780 Y24.9035 Z-2.0000 I-0.0362 J-0.0921
G02 X5.0362 Y25.0921 I0.0220 J0.0965 F500
G02 X4.9780 Y24.9035 I-0.0362 J-0.0921
G02 X5.0362 Y25.0921 Z-2.1628 I0.0220 J0.0965 F100
G02 X5.0836 Y24.9470 Z-2.2500 I-0.0362 J-0.0921
G03 X5.0362 Y25.0921 Z-2.3372 I-0.0836 J0.0530
G03 X4.9780 Y24.9035 Z-2.5000 I-0.0362 J-0.0921
G02 X5.0362 Y25.0921 I0.0220 J0.0965 F500
G02 X4.9780 Y24.9035 I-0.0362 J-0.0921
G02 X5.0362 Y25.0921 Z-2.6628 I0.0220 J0.0965 F100
G02 X5.0836 Y24.9470 Z-2.7500 I-0.0362 J-0.0921
G03 X5.0362 Y25.0921 Z-2.8372 I-0.0836 J0.0530
G03 X4.9780 Y24.9035 Z-3.0000 I-0.0362 J-0.0921
G02 X5.0362 Y25.0921 I0.0220 J0.0965 F500
G02 X4.9780 Y24.9035 I-0.0362 J-0.0921
G02 X5.0362 Y25.0921 Z-3.1628 I0.0220 J0.0965 F100
G02 X5.0836 Y24.9470 Z-3.2500 I-0.0362 J-0.0921
G03 X5.0362 Y25.0921 Z-3.3372 I-0.0836 J0.0530
G03 X4.9780 Y24.9035 Z-3.5000 I-0.0362 J-0.0921
G02 X5.0362 Y25.0921 I0.0220 J0.0965 F500
G02 X4.9780 Y24.9035 I-0.0362 J-0.0921
G00 Z5.0000


(No. 2: Part 5)
G00 X4.9926 Y104.9013 Z5.0000
G00 Z0.5000
G01 Z0.0000 F100
G02 X5.0074 Y105.0987 Z-0.1554 I0.0074 J0.0987
G02 X5.0905 Y104.9601 Z-0.2500 I-0.0074 J-0.0987
G03 X5.0074 Y105.0987 Z-0.3446 I-0.0905 J0.0399
G03 X4.9926 Y104.9013 Z-0.5000 I-0.0074 J-0.0987
G02 X5.0074 Y105.0987 I0.0074 J0.0987 F500
G02 X4.9926 Y104.9013 I-0.0074 J-0.0987
G02 X5.0074 Y105.0987 Z-0.6554 I0.0074 J0.0987 F100
G02 X5.0905 Y104.9601 Z-0.7500 I-0.0074 J-0.0987
G03 X5.0074 Y105.0987 Z-0.8446 I-0.0905 J0.0399
G03 X4.9926 Y104.9013 Z-1.0000 I-0.0074 J-0.0987
G02 X5.0074 Y105.0987 I0.0074 J0.0987 F500
G02 X4.9926 Y104.9013 I-0.0074 J-0.0987
G02 X5.0074 Y105.0987 Z-1.1554 I0.0074 J0.0987 F100
G02 X5.0905 Y104.9601 Z-1.2500 I-0.0074 J-0.0987
G03 X5.0074 Y105.0987 Z-1.3446 I-0.0905 J0.0399
G03 X4.9926 Y104.9013 Z-1.5000 I-0.0074 J-0.0987
G02 X5.0074 Y105.0987 I0.0074 J0.0987 F500
G02 X4.9926 Y104.9013 I-0.0074 J-0.0987
G02 X5.0074 Y105.0987 Z-1.6554 I0.0074 J0.0987 F100
G02 X5.0905 Y104.9601 Z-1.7500 I-0.0074 J-0.0987
G03 X5.0074 Y105.0987 Z-1.8446 I-0.0905 J0.0399
G03 X4.9926 Y104.9013 Z-2.0000 I-0.0074 J-0.0987
G02 X5.0074 Y105.0987 I0.0074 J0.0987 F500
G02 X4.9926 Y104.9013 I-0.0074 J-0.0987
G02 X5.0074 Y105.0987 Z-2.1554 I0.0074 J0.0987 F100
G02 X5.0905 Y104.9601 Z-2.2500 I-0.0074 J-0.0987
G03 X5.0074 Y105.0987 Z-2.3446 I-0.0905 J0.0399
G03 X4.9926 Y104.9013 Z-2.5000 I-0.0074 J-0.0987
G02 X5.0074 Y105.0987 I0.0074 J0.0987 F500
G02 X4.9926 Y104.9013 I-0.0074 J-0.0987
G02 X5.0074 Y105.0987 Z-2.6554 I0.0074 J0.0987 F100
G02 X5.0905 Y104.9601 Z-2.7500 I-0.0074 J-0.0987
G03 X5.0074 Y105.0987 Z-2.8446 I-0.0905 J0.0399
G03 X4.9926 Y104.9013 Z-3.0000 I-0.0074 J-0.0987
G02 X5.0074 Y105.0987 I0.0074 J0.0987 F500
G02 X4.9926 Y104.9013 I-0.0074 J-0.0987
G02 X5.0074 Y105.0987 Z-3.1554 I0.0074 J0.0987 F100
G02 X5.0905 Y104.9601 Z-3.2500 I-0.0074 J-0.0987
G03 X5.0074 Y105.0987 Z-3.3446 I-0.0905 J0.0399
G03 X4.9926 Y104.9013 Z-3.5000 I-0.0074 J-0.0987
G02 X5.0074 Y105.0987 I0.0074 J0.0987 F500
G02 X4.9926 Y104.9013 I-0.0074 J-0.0987
G00 Z5.0000


(No. 3: Part 12)
G00 X18.7353 Y113.6522 Z5.0000
G00 Z0.5000
G01 Z0.0000 F100
G02 X18.7647 Y113.8478 Z-0.1554 I0.0147 J0.0978
G02 X18.8373 Y113.7034 Z-0.2500 I-0.0147 J-0.0978
G03 X18.7647 Y113.8478 Z-0.3446 I-0.0873 J0.0466
G03 X18.7353 Y113.6522 Z-0.5000 I-0.0147 J-0.0978
G02 X18.7647 Y113.8478 I0.0147 J0.0978 F500
G02 X18.7353 Y113.6522 I-0.0147 J-0.0978
G02 X18.7647 Y113.8478 Z-0.6554 I0.0147 J0.0978 F100
G02 X18.8373 Y113.7034 Z-0.7500 I-0.0147 J-0.0978
G03 X18.7647 Y113.8478 Z-0.8446 I-0.0873 J0.0466
G03 X18.7353 Y113.6522 Z-1.0000 I-0.0147 J-0.0978
G02 X18.7647 Y113.8478 I0.0147 J0.0978 F500
G02 X18.7353 Y113.6522 I-0.0147 J-0.0978
G02 X18.7647 Y113.8478 Z-1.1554 I0.0147 J0.0978 F100
G02 X18.8373 Y113.7034 Z-1.2500 I-0.0147 J-0.0978
G03 X18.7647 Y113.8478 Z-1.3446 I-0.0873 J0.0466
G03 X18.7353 Y113.6522 Z-1.5000 I-0.0147 J-0.0978
G02 X18.7647 Y113.8478 I0.0147 J0.0978 F500
G02 X18.7353 Y113.6522 I-0.0147 J-0.0978
G02 X18.7647 Y113.8478 Z-1.6554 I0.0147 J0.0978 F100
G02 X18.8373 Y113.7034 Z-1.7500 I-0.0147 J-0.0978
G03 X18.7647 Y113.8478 Z-1.8446 I-0.0873 J0.0466
G03 X18.7353 Y113.6522 Z-2.0000 I-0.0147 J-0.0978
G02 X18.7647 Y113.8478 I0.0147 J0.0978 F500
G02 X18.7353 Y113.6522 I-0.0147 J-0.0978
G02 X18.7647 Y113.8478 Z-2.1554 I0.0147 J0.0978 F100
G02 X18.8373 Y113.7034 Z-2.2500 I-0.0147 J-0.0978
G03 X18.7647 Y113.8478 Z-2.3446 I-0.0873 J0.0466
G03 X18.7353 Y113.6522 Z-2.5000 I-0.0147 J-0.0978
G02 X18.7647 Y113.8478 I0.0147 J0.0978 F500
G02 X18.7353 Y113.6522 I-0.0147 J-0.0978
G02 X18.7647 Y113.8478 Z-2.6554 I0.0147 J0.0978 F100
G02 X18.8373 Y113.7034 Z-2.7500 I-0.0147 J-0.0978
G03 X18.7647 Y113.8478 Z-2.8446 I-0.0873 J0.0466
G03 X18.7353 Y113.6522 Z-3.0000 I-0.0147 J-0.0978
G02 X18.7647 Y113.8478 I0.0147 J0.0978 F500
G02 X18.7353 Y113.6522 I-0.0147 J-0.0978
G02 X18.7647 Y113.8478 Z-3.1554 I0.0147 J0.0978 F100
G02 X18.8373 Y113.7034 Z-3.2500 I-0.0147 J-0.0978
G03 X18.7647 Y113.8478 Z-3.3446 I-0.0873 J0.0466
G03 X18.7353 Y113.6522 Z-3.5000 I-0.0147 J-0.0978
G02 X18.7647 Y113.8478 I0.0147 J0.0978 F500
G02 X18.7353 Y113.6522 I-0.0147 J-0.0978
G00 Z5.0000


(No. 4: Part 21)
G00 X32.2483 Y111.2047 Z5.0000
G00 Z0.5000
G01 Z0.0000 F100
G02 X31.7546 Y111.2836 Z-0.2500 I2.7483 J18.7964
G03 X32.2483 Y111.2047 Z-0.5000 I3.2420 J18.7175
G02 X33.5486 Y148.9421 I2.7483 J18.7964 F500
G02 X38.5260 Y148.6655 I1.4654 J-18.5547
G02 X37.2330 Y111.1341 I-3.5225 J-18.6666
G02 X32.2483 Y111.2047 I-2.2309 J18.4783
G02 X31.7546 Y111.2836 Z-0.7500 I2.7483 J18.7964 F100
G03 X32.2483 Y111.2047 Z-1.0000 I3.2420 J18.7175
G02 X33.5486 Y148.9421 I2.7483 J18.7964 F500
G02 X38.5260 Y148.6655 I1.4654 J-18.5547
G02 X37.2330 Y111.1341 I-3.5225 J-18.6666
G02 X32.2483 Y111.2047 I-2.2309 J18.4783
G02 X31.7546 Y111.2836 Z-1.2500 I2.7483 J18.7964 F100
G03 X32.2483 Y111.2047 Z-1.5000 I3.2420 J18.7175
G02 X33.5486 Y148.9421 I2.7483 J18.7964 F500
G02 X38.5260 Y148.6655 I1.4654 J-18.5547
G02 X37.2330 Y111.1341 I-3.5225 J-18.6666
G02 X32.2483 Y111.2047 I-2.2309 J18.4783
G02 X31.7546 Y111.2836 Z-1.7500 I2.7483 J18.7964 F100
G03 X32.2483 Y111.2047 Z-2.0000 I3.2420 J18.7175
G02 X33.5486 Y148.9421 I2.7483 J18.7964 F500
G00 Z-1.5000
G02 X38.5260 Y148.6655 I1.4654 J-18.5547
G02 X39.0161 Y148.5663 Z-1.7500 I-3.5225 J-18.6666 F100
G03 X38.5260 Y148.6655 Z-2.0000 I-4.0126 J-18.5675
G02 X37.2330 Y111.1341 I-3.5225 J-18.6666 F500
G00 Z-1.5000
G02 X32.2483 Y111.2047 I-2.2309 J18.4783
G01 Z-2.0000 F100
G02 X31.7546 Y111.2836 Z-2.2500 I2.7483 J18.7964
G03 X32.2483 Y111.2047 Z-2.5000 I3.2420 J18.7175
G02 X33.5486 Y148.9421 I2.7483 J18.7964 F500
G00 Z-1.5000
G02 X38.5260 Y148.6655 I1.4654 J-18.5547
G01 Z-2.0000 F100
G02 X39.0161 Y148.5663 Z-2.2500 I-3.5225 J-18.6666
G03 X38.5260 Y148.6655 Z-2.5000 I-4.0126 J-18.5675
G02 X37.2330 Y111.1341 I-3.5225 J-18.6666 F500
G00 Z-1.5000
G02 X32.2483 Y111.2047 I-2.2309 J18.4783
G00 Z-2.0000
G01 Z-2.5000 F100
G02 X31.7546 Y111.2836 Z-2.7500 I2.7483 J18.7964
G03 X32.2483 Y111.2047 Z-3.0000 I3.2420 J18.7175
G02 X33.5486 Y148.9421 I2.7483 J18.7964 F500
G00 Z-1.5000
G02 X38.5260 Y148.6655 I1.4654 J-18.5547
G00 Z-2.0000
G01 Z-2.5000 F100
G02 X39.0161 Y148.5663 Z-2.7500 I-3.5225 J-18.6666
G03 X38.5260 Y148.6655 Z-3.0000 I-4.0126 J-18.5675
G02 X37.2330 Y111.1341 I-3.5225 J-18.6666 F500
G00 Z-1.5000
G02 X32.2483 Y111.2047 I-2.2309 J18.4783
G00 Z-2.5000
G01 Z-3.0000 F100
G02 X31.7546 Y111.2836 Z-3.2500 I2.7483 J18.7964
G03 X32.2483 Y111.2047 Z-3.5000 I3.2420 J18.7175
G02 X33.5486 Y148.9421 I2.7483 J18.7964 F500
G00 Z-1.5000
G02 X38.5260 Y148.6655 I1.4654 J-18.5547
G00 Z-2.5000
G01 Z-3.0000 F100
G02 X39.0161 Y148.5663 Z-3.2500 I-3.5225 J-18.6666
G03 X38.5260 Y148.6655 Z-3.5000 I-4.0126 J-18.5675
G02 X37.2330 Y111.1341 I-3.5225 J-18.6666 F500
G00 Z-1.5000
G02 X32.2483 Y111.2047 I-2.2309 J18.4783
G00 Z5.0000


(No. 5: Part 11)
G00 X51.2071 Y113.6609 Z5.0000
G00 Z0.5000
G01 Z0.0000 F100
G02 X51.3057 Y113.8318 Z-0.1628 I0.0429 J0.0892
G02 X51.3197 Y113.6798 Z-0.2500 I-0.0557 J-0.0818
G03 X51.3057 Y113.8318 Z-0.3372 I-0.0697 J0.0703
G03 X51.2071 Y113.6609 Z-0.5000 I-0.0557 J-0.0818
G02 X51.3057 Y113.8318 I0.0429 J0.0892 F500
G02 X51.2071 Y113.6609 I-0.0557 J-0.0818
G02 X51.3057 Y113.8318 Z-0.6628 I0.0429 J0.0892 F100
G02 X51.3197 Y113.6798 Z-0.7500 I-0.0557 J-0.0818
G03 X51.3057 Y113.8318 Z-0.8372 I-0.0697 J0.0703
G03 X51.2071 Y113.6609 Z-1.0000 I-0.0557 J-0.0818
G02 X51.3057 Y113.8318 I0.0429 J0.0892 F500
G02 X51.2071 Y113.6609 I-0.0557 J-0.0818
G02 X51.3057 Y113.8318 Z-1.1628 I0.0429 J0.0892 F100
G02 X51.3197 Y113.6798 Z-1.2500 I-0.0557 J-0.0818
G03 X51.3057 Y113.8318 Z-1.3372 I-0.0697 J0.0703
G03 X51.2071 Y113.6609 Z-1.5000 I-0.0557 J-0.0818
G02 X51.3057 Y113.8318 I0.0429 J0.0892 F500
G02 X51.2071 Y113.6609 I-0.0557 J-0.0818
G02 X51.3057 Y113.8318 Z-1.6628 I0.0429 J0.0892 F100
G02 X51.3197 Y113.6798 Z-1.7500 I-0.0557 J-0.0818
G03 X51.3057 Y113.8318 Z-1.8372 I-0.0697 J0.0703
G03 X51.2071 Y113.6609 Z-2.0000 I-0.0557 J-0.0818
G02 X51.3057 Y113.8318 I0.0429 J0.0892 F500
G02 X51.2071 Y113.6609 I-0.0557 J-0.0818
G02 X51.3057 Y113.8318 Z-2.1628 I0.0429 J0.0892 F100
G02 X51.3197 Y113.6798 Z-2.2500 I-0.0557 J-0.0818
G03 X51.3057 Y113.8318 Z-2.3372 I-0.0697 J0.0703
G03 X51.2071 Y113.6609 Z-2.5000 I-0.0557 J-0.0818
G02 X51.3057 Y113.8318 I0.0429 J0.0892 F500
G02 X51.2071 Y113.6609 I-0.0557 J-0.0818
G02 X51.3057 Y113.8318 Z-2.6628 I0.0429 J0.0892 F100
G02 X51.3197 Y113.6798 Z-2.7500 I-0.0557 J-0.0818
G03 X51.3057 Y113.8318 Z-2.8372 I-0.0697 J0.0703
G03 X51.2071 Y113.6609 Z-3.0000 I-0.0557 J-0.0818
G02 X51.3057 Y113.8318 I0.0429 J0.0892 F500
G02 X51.2071 Y113.6609 I-0.0557 J-0.0818
G02 X51.3057 Y113.8318 Z-3.1628 I0.0429 J0.0892 F100
G02 X51.3197 Y113.6798 Z-3.2500 I-0.0557 J-0.0818
G03 X51.3057 Y113.8318 Z-3.3372 I-0.0697 J0.0703
G03 X51.2071 Y113.6609 Z-3.5000 I-0.0557 J-0.0818
G02 X51.3057 Y113.8318 I0.0429 J0.0892 F500
G02 X51.2071 Y113.6609 I-0.0557 J-0.0818
G00 Z5.0000


(No. 6: Part 13)
G00 X51.2138 Y146.1579 Z5.0000
G00 Z0.5000
G01 Z0.0000 F100
G02 X51.2995 Y146.3357 Z-0.1628 I0.0362 J0.0921
G02 X51.3247 Y146.1851 Z-0.2500 I-0.0495 J-0.0857
G03 X51.2995 Y146.3357 Z-0.3372 I-0.0747 J0.0648
G03 X51.2138 Y146.1579 Z-0.5000 I-0.0495 J-0.0857
G02 X51.2995 Y146.3357 I0.0362 J0.0921 F500
G02 X51.2138 Y146.1579 I-0.0495 J-0.0857
G02 X51.2995 Y146.3357 Z-0.6628 I0.0362 J0.0921 F100
G02 X51.3247 Y146.1851 Z-0.7500 I-0.0495 J-0.0857
G03 X51.2995 Y146.3357 Z-0.8372 I-0.0747 J0.0648
G03 X51.2138 Y146.1579 Z-1.0000 I-0.0495 J-0.0857
G02 X51.2995 Y146.3357 I0.0362 J0.0921 F500
G02 X51.2138 Y146.1579 I-0.0495 J-0.0857
G02 X51.2995 Y146.3357 Z-1.1628 I0.0362 J0.0921 F100
G02 X51.3247 Y146.1851 Z-1.2500 I-0.0495 J-0.0857
G03 X51.2995 Y146.3357 Z-1.3372 I-0.0747 J0.0648
G03 X51.2138 Y146.1579 Z-1.5000 I-0.0495 J-0.0857
G02 X51.2995 Y146.3357 I0.0362 J0.0921 F500
G02 X51.2138 Y146.1579 I-0.0495 J-0.0857
G02 X51.2995 Y146.3357 Z-1.6628 I0.0362 J0.0921 F100
G02 X51.3247 Y146.1851 Z-1.7500 I-0.0495 J-0.0857
G03 X51.2995 Y146.3357 Z-1.8372 I-0.0747 J0.0648
G03 X51.2138 Y146.1579 Z-2.0000 I-0.0495 J-0.0857
G02 X51.2995 Y146.3357 I0.0362 J0.0921 F500
G02 X51.2138 Y146.1579 I-0.0495 J-0.0857
G02 X51.2995 Y146.3357 Z-2.1628 I0.0362 J0.0921 F100
G02 X51.3247 Y146.1851 Z-2.2500 I-0.0495 J-0.0857
G03 X51.2995 Y146.3357 Z-2.3372 I-0.0747 J0.0648
G03 X51.2138 Y146.1579 Z-2.5000 I-0.0495 J-0.0857
G02 X51.2995 Y146.3357 I0.0362 J0.0921 F500
G02 X51.2138 Y146.1579 I-0.0495 J-0.0857
G02 X51.2995 Y146.3357 Z-2.6628 I0.0362 J0.0921 F100
G02 X51.3247 Y146.1851 Z-2.7500 I-0.0495 J-0.0857
G03 X51.2995 Y146.3357 Z-2.8372 I-0.0747 J0.0648
G03 X51.2138 Y146.1579 Z-3.0000 I-0.0495 J-0.0857
G02 X51.2995 Y146.3357 I0.0362 J0.0921 F500
G02 X51.2138 Y146.1579 I-0.0495 J-0.0857
G02 X51.2995 Y146.3357 Z-3.1628 I0.0362 J0.0921 F100
G02 X51.3247 Y146.1851 Z-3.2500 I-0.0495 J-0.0857
G03 X51.2995 Y146.3357 Z-3.3372 I-0.0747 J0.0648
G03 X51.2138 Y146.1579 Z-3.5000 I-0.0495 J-0.0857
G02 X51.2995 Y146.3357 I0.0362 J0.0921 F500
G02 X51.2138 Y146.1579 I-0.0495 J-0.0857
G00 Z5.0000


(No. 7: Part 14)
G00 X18.7353 Y146.1521 Z5.0000
G00 Z0.5000
G01 Z0.0000 F100
G02 X18.7647 Y146.3478 Z-0.1554 I0.0147 J0.0978
G02 X18.8373 Y146.2034 Z-0.2500 I-0.0147 J-0.0978
G03 X18.7647 Y146.3478 Z-0.3446 I-0.0873 J0.0466
G03 X18.7353 Y146.1521 Z-0.5000 I-0.0147 J-0.0978
G02 X18.7647 Y146.3478 I0.0147 J0.0978 F500
G02 X18.7353 Y146.1521 I-0.0147 J-0.0978
G02 X18.7647 Y146.3478 Z-0.6554 I0.0147 J0.0978 F100
G02 X18.8373 Y146.2034 Z-0.7500 I-0.0147 J-0.0978
G03 X18.7647 Y146.3478 Z-0.8446 I-0.0873 J0.0466
G03 X18.7353 Y146.1521 Z-1.0000 I-0.0147 J-0.0978
G02 X18.7647 Y146.3478 I0.0147 J0.0978 F500
G02 X18.7353 Y146.1521 I-0.0147 J-0.0978
G02 X18.7647 Y146.3478 Z-1.1554 I0.0147 J0.0978 F100
G02 X18.8373 Y146.2034 Z-1.2500 I-0.0147 J-0.0978
G03 X18.7647 Y146.3478 Z-1.3446 I-0.0873 J0.0466
G03 X18.7353 Y146.1521 Z-1.5000 I-0.0147 J-0.0978
G02 X18.7647 Y146.3478 I0.0147 J0.0978 F500
G02 X18.7353 Y146.1521 I-0.0147 J-0.0978
G02 X18.7647 Y146.3478 Z-1.6554 I0.0147 J0.0978 F100
G02 X18.8373 Y146.2034 Z-1.7500 I-0.0147 J-0.0978
G03 X18.7647 Y146.3478 Z-1.8446 I-0.0873 J0.0466
G03 X18.7353 Y146.1521 Z-2.0000 I-0.0147 J-0.0978
G02 X18.7647 Y146.3478 I0.0147 J0.0978 F500
G02 X18.7353 Y146.1521 I-0.0147 J-0.0978
G02 X18.7647 Y146.3478 Z-2.1554 I0.0147 J0.0978 F100
G02 X18.8373 Y146.2034 Z-2.2500 I-0.0147 J-0.0978
G03 X18.7647 Y146.3478 Z-2.3446 I-0.0873 J0.0466
G03 X18.7353 Y146.1521 Z-2.5000 I-0.0147 J-0.0978
G02 X18.7647 Y146.3478 I0.0147 J0.0978 F500
G02 X18.7353 Y146.1521 I-0.0147 J-0.0978
G02 X18.7647 Y146.3478 Z-2.6554 I0.0147 J0.0978 F100
G02 X18.8373 Y146.2034 Z-2.7500 I-0.0147 J-0.0978
G03 X18.7647 Y146.3478 Z-2.8446 I-0.0873 J0.0466
G03 X18.7353 Y146.1521 Z-3.0000 I-0.0147 J-0.0978
G02 X18.7647 Y146.3478 I0.0147 J0.0978 F500
G02 X18.7353 Y146.1521 I-0.0147 J-0.0978
G02 X18.7647 Y146.3478 Z-3.1554 I0.0147 J0.0978 F100
G02 X18.8373 Y146.2034 Z-3.2500 I-0.0147 J-0.0978
G03 X18.7647 Y146.3478 Z-3.3446 I-0.0873 J0.0466
G03 X18.7353 Y146.1521 Z-3.5000 I-0.0147 J-0.0978
G02 X18.7647 Y146.3478 I0.0147 J0.0978 F500
G02 X18.7353 Y146.1521 I-0.0147 J-0.0978
G00 Z5.0000


(No. 8: Part 6)
G00 X5.0000 Y184.9010 Z5.0000
G00 Z0.5000
G01 Z0.0000 F100
G02 X5.0147 Y185.0978 Z-0.1628 I0.0000 J0.0990
G02 X5.0933 Y184.9669 Z-0.2500 I-0.0147 J-0.0978
G03 X5.0147 Y185.0978 Z-0.3372 I-0.0933 J0.0331
G03 X5.0000 Y184.9010 Z-0.5000 I-0.0147 J-0.0978
G02 X5.0147 Y185.0978 I0.0000 J0.0990 F500
G02 X5.0000 Y184.9010 I-0.0147 J-0.0978
G02 X5.0147 Y185.0978 Z-0.6628 I0.0000 J0.0990 F100
G02 X5.0933 Y184.9669 Z-0.7500 I-0.0147 J-0.0978
G03 X5.0147 Y185.0978 Z-0.8372 I-0.0933 J0.0331
G03 X5.0000 Y184.9010 Z-1.0000 I-0.0147 J-0.0978
G02 X5.0147 Y185.0978 I0.0000 J0.0990 F500
G02 X5.0000 Y184.9010 I-0.0147 J-0.0978
G02 X5.0147 Y185.0978 Z-1.1628 I0.0000 J0.0990 F100
G02 X5.0933 Y184.9669 Z-1.2500 I-0.0147 J-0.0978
G03 X5.0147 Y185.0978 Z-1.3372 I-0.0933 J0.0331
G03 X5.0000 Y184.9010 Z-1.5000 I-0.0147 J-0.0978
G02 X5.0147 Y185.0978 I0.0000 J0.0990 F500
G02 X5.0000 Y184.9010 I-0.0147 J-0.0978
G02 X5.0147 Y185.0978 Z-1.6628 I0.0000 J0.0990 F100
G02 X5.0933 Y184.9669 Z-1.7500 I-0.0147 J-0.0978
G03 X5.0147 Y185.0978 Z-1.8372 I-0.0933 J0.0331
G03 X5.0000 Y184.9010 Z-2.0000 I-0.0147 J-0.0978
G02 X5.0147 Y185.0978 I0.0000 J0.0990 F500
G02 X5.0000 Y184.9010 I-0.0147 J-0.0978
G02 X5.0147 Y185.0978 Z-2.1628 I0.0000 J0.0990 F100
G02 X5.0933 Y184.9669 Z-2.2500 I-0.0147 J-0.0978
G03 X5.0147 Y185.0978 Z-2.3372 I-0.0933 J0.0331
G03 X5.0000 Y184.9010 Z-2.5000 I-0.0147 J-0.0978
G02 X5.0147 Y185.0978 I0.0000 J0.0990 F500
G02 X5.0000 Y184.9010 I-0.0147 J-0.0978
G02 X5.0147 Y185.0978 Z-2.6628 I0.0000 J0.0990 F100
G02 X5.0933 Y184.9669 Z-2.7500 I-0.0147 J-0.0978
G03 X5.0147 Y185.0978 Z-2.8372 I-0.0933 J0.0331
G03 X5.0000 Y184.9010 Z-3.0000 I-0.0147 J-0.0978
G02 X5.0147 Y185.0978 I0.0000 J0.0990 F500
G02 X5.0000 Y184.9010 I-0.0147 J-0.0978
G02 X5.0147 Y185.0978 Z-3.1628 I0.0000 J0.0990 F100
G02 X5.0933 Y184.9669 Z-3.2500 I-0.0147 J-0.0978
G03 X5.0147 Y185.0978 Z-3.3372 I-0.0933 J0.0331
G03 X5.0000 Y184.9010 Z-3.5000 I-0.0147 J-0.0978
G02 X5.0147 Y185.0978 I0.0000 J0.0990 F500
G02 X5.0000 Y184.9010 I-0.0147 J-0.0978
G00 Z5.0000


(No. 9: Part 10)
G00 X19.8330 Y188.4108 Z5.0000
G00 Z0.5000
G01 Z0.0000 F100
G02 X19.3519 Y188.5394 Z-0.2500 I0.1670 J1.5892
G03 X19.8330 Y188.4108 Z-0.5000 I0.6481 J1.4606
G02 X18.7072 Y190.9392 I0.1670 J1.5892 F500
G02 X21.4598 Y190.6499 I1.2928 J-0.9392
G02 X19.8330 Y188.4108 I-1.4598 J-0.6499
G02 X19.3519 Y188.5394 Z-0.7500 I0.1670 J1.5892 F100
G03 X19.8330 Y188.4108 Z-1.0000 I0.6481 J1.4606
G02 X18.7072 Y190.9392 I0.1670 J1.5892 F500
G02 X21.4598 Y190.6499 I1.2928 J-0.9392
G02 X19.8330 Y188.4108 I-1.4598 J-0.6499
G02 X19.3519 Y188.5394 Z-1.2500 I0.1670 J1.5892 F100
G03 X19.8330 Y188.4108 Z-1.5000 I0.6481 J1.4606
G02 X18.7072 Y190.9392 I0.1670 J1.5892 F500
G02 X21.4598 Y190.6499 I1.2928 J-0.9392
G02 X19.8330 Y188.4108 I-1.4598 J-0.6499
G02 X19.3519 Y188.5394 Z-1.7500 I0.1670 J1.5892 F100
G03 X19.8330 Y188.4108 Z-2.0000 I0.6481 J1.4606
G02 X18.7072 Y190.9392 I0.1670 J1.5892 F500
G02 X21.4598 Y190.6499 I1.2928 J-0.9392
G02 X19.8330 Y188.4108 I-1.4598 J-0.6499
G02 X19.3519 Y188.5394 Z-2.2500 I0.1670 J1.5892 F100
G03 X19.8330 Y188.4108 Z-2.5000 I0.6481 J1.4606
G02 X18.7072 Y190.9392 I0.1670 J1.5892 F500
G02 X21.4598 Y190.6499 I1.2928 J-0.9392
G02 X19.8330 Y188.4108 I-1.4598 J-0.6499
G02 X19.3519 Y188.5394 Z-2.7500 I0.1670 J1.5892 F100
G03 X19.8330 Y188.4108 Z-3.0000 I0.6481 J1.4606
G02 X18.7072 Y190.9392 I0.1670 J1.5892 F500
G02 X21.4598 Y190.6499 I1.2928 J-0.9392
G02 X19.8330 Y188.4108 I-1.4598 J-0.6499
G02 X19.3519 Y188.5394 Z-3.2500 I0.1670 J1.5892 F100
G03 X19.8330 Y188.4108 Z-3.5000 I0.6481 J1.4606
G02 X18.7072 Y190.9392 I0.1670 J1.5892 F500
G02 X21.4598 Y190.6499 I1.2928 J-0.9392
G02 X19.8330 Y188.4108 I-1.4598 J-0.6499
G00 Z5.0000


(No. 10: Part 9)
G00 X39.6678 Y188.4370 Z5.0000
G00 Z0.5000
G01 Z0.0000 F100
G02 X39.2028 Y188.6151 Z-0.2500 I0.3322 J1.5630
G03 X39.6678 Y188.4370 Z-0.5000 I0.7972 J1.3849
G02 X38.8125 Y191.0692 I0.3322 J1.5630 F500
G02 X41.5197 Y190.4938 I1.1875 J-1.0692
G02 X39.6678 Y188.4370 I-1.5197 J-0.4938
G02 X39.2028 Y188.6151 Z-0.7500 I0.3322 J1.5630 F100
G03 X39.6678 Y188.4370 Z-1.0000 I0.7972 J1.3849
G02 X38.8125 Y191.0692 I0.3322 J1.5630 F500
G02 X41.5197 Y190.4938 I1.1875 J-1.0692
G02 X39.6678 Y188.4370 I-1.5197 J-0.4938
G02 X39.2028 Y188.6151 Z-1.2500 I0.3322 J1.5630 F100
G03 X39.6678 Y188.4370 Z-1.5000 I0.7972 J1.3849
G02 X38.8125 Y191.0692 I0.3322 J1.5630 F500
G02 X41.5197 Y190.4938 I1.1875 J-1.0692
G02 X39.6678 Y188.4370 I-1.5197 J-0.4938
G02 X39.2028 Y188.6151 Z-1.7500 I0.3322 J1.5630 F100
G03 X39.6678 Y188.4370 Z-2.0000 I0.7972 J1.3849
G02 X38.8125 Y191.0692 I0.3322 J1.5630 F500
G02 X41.5197 Y190.4938 I1.1875 J-1.0692
G02 X39.6678 Y188.4370 I-1.5197 J-0.4938
G02 X39.2028 Y188.6151 Z-2.2500 I0.3322 J1.5630 F100
G03 X39.6678 Y188.4370 Z-2.5000 I0.7972 J1.3849
G02 X38.8125 Y191.0692 I0.3322 J1.5630 F500
G02 X41.5197 Y190.4938 I1.1875 J-1.0692
G02 X39.6678 Y188.4370 I-1.5197 J-0.4938
G02 X39.2028 Y188.6151 Z-2.7500 I0.3322 J1.5630 F100
G03 X39.6678 Y188.4370 Z-3.0000 I0.7972 J1.3849
G02 X38.8125 Y191.0692 I0.3322 J1.5630 F500
G02 X41.5197 Y190.4938 I1.1875 J-1.0692
G02 X39.6678 Y188.4370 I-1.5197 J-0.4938
G02 X39.2028 Y188.6151 Z-3.2500 I0.3322 J1.5630 F100
G03 X39.6678 Y188.4370 Z-3.5000 I0.7972 J1.3849
G02 X38.8125 Y191.0692 I0.3322 J1.5630 F500
G02 X41.5197 Y190.4938 I1.1875 J-1.0692
G02 X39.6678 Y188.4370 I-1.5197 J-0.4938
G00 Z5.0000


(No. 11: Part 17)
G00 X67.3380 Y179.7437 Z5.0000
G00 Z0.5000
G01 Z0.0000 F100
G02 X66.8571 Y179.8805 Z-0.2500 I2.6576 J10.2563
G03 X67.3380 Y179.7437 Z-0.5000 I3.1384 J10.1195
G02 Y200.2563 I2.6576 J10.2563 F500
G02 X72.2906 Y200.3486 I2.6674 J-10.2019
G02 Y179.6514 I-2.2902 J-10.3486
G02 X67.3380 Y179.7437 I-2.2856 J10.2727
G02 X66.8571 Y179.8805 Z-0.7500 I2.6576 J10.2563 F100
G03 X67.3380 Y179.7437 Z-1.0000 I3.1384 J10.1195
G02 Y200.2563 I2.6576 J10.2563 F500
G02 X72.2906 Y200.3486 I2.6674 J-10.2019
G02 Y179.6514 I-2.2902 J-10.3486
G02 X67.3380 Y179.7437 I-2.2856 J10.2727
G02 X66.8571 Y179.8805 Z-1.2500 I2.6576 J10.2563 F100
G03 X67.3380 Y179.7437 Z-1.5000 I3.1384 J10.1195
G02 Y200.2563 I2.6576 J10.2563 F500
G02 X72.2906 Y200.3486 I2.6674 J-10.2019
G02 Y179.6514 I-2.2902 J-10.3486
G02 X67.3380 Y179.7437 I-2.2856 J10.2727
G02 X66.8571 Y179.8805 Z-1.7500 I2.6576 J10.2563 F100
G03 X67.3380 Y179.7437 Z-2.0000 I3.1384 J10.1195
G02 Y200.2563 I2.6576 J10.2563 F500
G00 Z-1.5000
G02 X72.2906 Y200.3486 I2.6674 J-10.2019
G02 X72.7761 Y200.2291 Z-1.7500 I-2.2902 J-10.3486 F100
G03 X72.2906 Y200.3486 Z-2.0000 I-2.7757 J-10.2291
G02 Y179.6514 I-2.2902 J-10.3486 F500
G00 Z-1.5000
G02 X67.3380 Y179.7437 I-2.2856 J10.2727
G01 Z-2.0000 F100
G02 X66.8571 Y179.8805 Z-2.2500 I2.6576 J10.2563
G03 X67.3380 Y179.7437 Z-2.5000 I3.1384 J10.1195
G02 Y200.2563 I2.6576 J10.2563 F500
G00 Z-1.5000
G02 X72.2906 Y200.3486 I2.6674 J-10.2019
G01 Z-2.0000 F100
G02 X72.7761 Y200.2291 Z-2.2500 I-2.2902 J-10.3486
G03 X72.2906 Y200.3486 Z-2.5000 I-2.7757 J-10.2291
G02 Y179.6514 I-2.2902 J-10.3486 F500
G00 Z-1.5000
G02 X67.3380 Y179.7437 I-2.2856 J10.2727
G00 Z-2.0000
G01 Z-2.5000 F100
G02 X66.8571 Y179.8805 Z-2.7500 I2.6576 J10.2563
G03 X67.3380 Y179.7437 Z-3.0000 I3.1384 J10.1195
G02 Y200.2563 I2.6576 J10.2563 F500
G00 Z-1.5000
G02 X72.2906 Y200.3486 I2.6674 J-10.2019
G00 Z-2.0000
G01 Z-2.5000 F100
G02 X72.7761 Y200.2291 Z-2.7500 I-2.2902 J-10.3486
G03 X72.2906 Y200.3486 Z-3.0000 I-2.7757 J-10.2291
G02 Y179.6514 I-2.2902 J-10.3486 F500
G00 Z-1.5000
G02 X67.3380 Y179.7437 I-2.2856 J10.2727
G00 Z-2.5000
G01 Z-3.0000 F100
G02 X66.8571 Y179.8805 Z-3.2500 I2.6576 J10.2563
G03 X67.3380 Y179.7437 Z-3.5000 I3.1384 J10.1195
G02 Y200.2563 I2.6576 J10.2563 F500
G00 Z-1.5000
G02 X72.2906 Y200.3486 I2.6674 J-10.2019
G00 Z-2.5000
G01 Z-3.0000 F100
G02 X72.7761 Y200.2291 Z-3.2500 I-2.2902 J-10.3486
G03 X72.2906 Y200.3486 Z-3.5000 I-2.7757 J-10.2291
G02 Y179.6514 I-2.2902 J-10.3486 F500
G00 Z-1.5000
G02 X67.3380 Y179.7437 I-2.2856 J10.2727
G00 Z5.0000


(No. 12: Part 16)
G00 X107.8032 Y179.6327 Z5.0000
G00 Z0.5000
G01 Z0.0000 F100
G02 X107.3166 Y179.7477 Z-0.2500 I2.1934 J10.3665
G03 X107.8032 Y179.6327 Z-0.5000 I2.6799 J10.2515
G02 X107.3380 Y200.2563 I2.1934 J10.3665 F500
G02 X112.2906 Y200.3486 I2.6674 J-10.2019
G02 X112.7549 Y179.7668 I-2.2891 J-10.3478
G02 X107.8032 Y179.6327 I-2.7530 J10.1631
G02 X107.3166 Y179.7477 Z-0.7500 I2.1934 J10.3665 F100
G03 X107.8032 Y179.6327 Z-1.0000 I2.6799 J10.2515
G02 X107.3380 Y200.2563 I2.1934 J10.3665 F500
G02 X112.2906 Y200.3486 I2.6674 J-10.2019
G02 X112.7549 Y179.7668 I-2.2891 J-10.3478
G02 X107.8032 Y179.6327 I-2.7530 J10.1631
G02 X107.3166 Y179.7477 Z-1.2500 I2.1934 J10.3665 F100
G03 X107.8032 Y179.6327 Z-1.5000 I2.6799 J10.2515
G02 X107.3380 Y200.2563 I2.1934 J10.3665 F500
G02 X112.2906 Y200.3486 I2.6674 J-10.2019
G02 X112.7549 Y179.7668 I-2.2891 J-10.3478
G02 X107.8032 Y179.6327 I-2.7530 J10.1631
G02 X107.3166 Y179.7477 Z-1.7500 I2.1934 J10.3665 F100
G03 X107.8032 Y179.6327 Z-2.0000 I2.6799 J10.2515
G02 X107.3380 Y200.2563 I2.1934 J10.3665 F500
G00 Z-1.5000
G02 X112.2906 Y200.3486 I2.6674 J-10.2019
G02 X112.7761 Y200.2292 Z-1.7500 I-2.2891 J-10.3478 F100
G03 X112.2906 Y200.3486 Z-2.0000 I-2.7746 J-10.2283
G02 X112.7549 Y179.7668 I-2.2891 J-10.3478 F500
G00 Z-1.5000
G02 X107.8032 Y179.6327 I-2.7530 J10.1631
G01 Z-2.0000 F100
G02 X107.3166 Y179.7477 Z-2.2500 I2.1934 J10.3665
G03 X107.8032 Y179.6327 Z-2.5000 I2.6799 J10.2515
G02 X107.3380 Y200.2563 I2.1934 J10.3665 F500
G00 Z-1.5000
G02 X112.2906 Y200.3486 I2.6674 J-10.2019
G01 Z-2.0000 F100
G02 X112.7761 Y200.2292 Z-2.2500 I-2.2891 J-10.3478
G03 X112.2906 Y200.3486 Z-2.5000 I-2.7746 J-10.2283
G02 X112.7549 Y179.7668 I-2.2891 J-10.3478 F500
G00 Z-1.5000
G02 X107.8032 Y179.6327 I-2.7530 J10.1631
G00 Z-2.0000
G01 Z-2.5000 F100
G02 X107.3166 Y179.7477 Z-2.7500 I2.1934 J10.3665
G03 X107.8032 Y179.6327 Z-3.0000 I2.6799 J10.2515
G02 X107.3380 Y200.2563 I2.1934 J10.3665 F500
G00 Z-1.5000
G02 X112.2906 Y200.3486 I2.6674 J-10.2019
G00 Z-2.0000
G01 Z-2.5000 F100
G02 X112.7761 Y200.2292 Z-2.7500 I-2.2891 J-10.3478
G03 X112.2906 Y200.3486 Z-3.0000 I-2.7746 J-10.2283
G02 X112.7549 Y179.7668 I-2.2891 J-10.3478 F500
G00 Z-1.5000
G02 X107.8032 Y179.6327 I-2.7530 J10.1631
G00 Z-2.5000
G01 Z-3.0000 F100
G02 X107.3166 Y179.7477 Z-3.2500 I2.1934 J10.3665
G03 X107.8032 Y179.6327 Z-3.5000 I2.6799 J10.2515
G02 X107.3380 Y200.2563 I2.1934 J10.3665 F500
G00 Z-1.5000
G02 X112.2906 Y200.3486 I2.6674 J-10.2019
G00 Z-2.5000
G01 Z-3.0000 F100
G02 X112.7761 Y200.2292 Z-3.2500 I-2.2891 J-10.3478
G03 X112.2906 Y200.3486 Z-3.5000 I-2.7746 J-10.2283
G02 X112.7549 Y179.7668 I-2.2891 J-10.3478 F500
G00 Z-1.5000
G02 X107.8032 Y179.6327 I-2.7530 J10.1631
G00 Z5.0000


(No. 13: Part 15)
G00 X147.1525 Y179.7905 Z5.0000
G00 Z0.5000
G01 Z0.0000 F100
G02 X146.6742 Y179.9361 Z-0.2500 I2.8449 J10.2080
G03 X147.1525 Y179.7905 Z-0.5000 I3.3232 J10.0625
G02 X147.8971 Y200.3854 I2.8449 J10.2080 F500
G02 X152.8475 Y200.2094 I2.1112 J-10.3313
G02 X152.1029 Y179.6146 I-2.8449 J-10.2080
G02 X147.1525 Y179.7905 I-2.1112 J10.3313
G02 X146.6742 Y179.9361 Z-0.7500 I2.8449 J10.2080 F100
G03 X147.1525 Y179.7905 Z-1.0000 I3.3232 J10.0625
G02 X147.8971 Y200.3854 I2.8449 J10.2080 F500
G02 X152.8475 Y200.2094 I2.1112 J-10.3313
G02 X152.1029 Y179.6146 I-2.8449 J-10.2080
G02 X147.1525 Y179.7905 I-2.1112 J10.3313
G02 X146.6742 Y179.9361 Z-1.2500 I2.8449 J10.2080 F100
G03 X147.1525 Y179.7905 Z-1.5000 I3.3232 J10.0625
G02 X147.8971 Y200.3854 I2.8449 J10.2080 F500
G02 X152.8475 Y200.2094 I2.1112 J-10.3313
G02 X152.1029 Y179.6146 I-2.8449 J-10.2080
G02 X147.1525 Y179.7905 I-2.1112 J10.3313
G02 X146.6742 Y179.9361 Z-1.7500 I2.8449 J10.2080 F100
G03 X147.1525 Y179.7905 Z-2.0000 I3.3232 J10.0625
G02 X147.8971 Y200.3854 I2.8449 J10.2080 F500
G00 Z-1.5000
G02 X152.8475 Y200.2094 I2.1112 J-10.3313
G02 X153.3258 Y200.0639 Z-1.7500 I-2.8449 J-10.2080 F100
G03 X152.8475 Y200.2094 Z-2.0000 I-3.3232 J-10.0625
G02 X152.1029 Y179.6146 I-2.8449 J-10.2080 F500
G00 Z-1.5000
G02 X147.1525 Y179.7905 I-2.1112 J10.3313
G01 Z-2.0000 F100
G02 X146.6742 Y179.9361 Z-2.2500 I2.8449 J10.2080
G03 X147.1525 Y179.7905 Z-2.5000 I3.3232 J10.0625
G02 X147.8971 Y200.3854 I2.8449 J10.2080 F500
G00 Z-1.5000
G02 X152.8475 Y200.2094 I2.1112 J-10.3313
G01 Z-2.0000 F100
G02 X153.3258 Y200.0639 Z-2.2500 I-2.8449 J-10.2080
G03 X152.8475 Y200.2094 Z-2.5000 I-3.3232 J-10.0625
G02 X152.1029 Y179.6146 I-2.8449 J-10.2080 F500
G00 Z-1.5000
G02 X147.1525 Y179.7905 I-2.1112 J10.3313
G00 Z-2.0000
G01 Z-2.5000 F100
G02 X146.6742 Y179.9361 Z-2.7500 I2.8449 J10.2080
G03 X147.1525 Y179.7905 Z-3.0000 I3.3232 J10.0625
G02 X147.8971 Y200.3854 I2.8449 J10.2080 F500
G00 Z-1.5000
G02 X152.8475 Y200.2094 I2.1112 J-10.3313
G00 Z-2.0000
G01 Z-2.5000 F100
G02 X153.3258 Y200.0639 Z-2.7500 I-2.8449 J-10.2080
G03 X152.8475 Y200.2094 Z-3.0000 I-3.3232 J-10.0625
G02 X152.1029 Y179.6146 I-2.8449 J-10.2080 F500
G00 Z-1.5000
G02 X147.1525 Y179.7905 I-2.1112 J10.3313
G00 Z-2.5000
G01 Z-3.0000 F100
G02 X146.6742 Y179.9361 Z-3.2500 I2.8449 J10.2080
G03 X147.1525 Y179.7905 Z-3.5000 I3.3232 J10.0625
G02 X147.8971 Y200.3854 I2.8449 J10.2080 F500
G00 Z-1.5000
G02 X152.8475 Y200.2094 I2.1112 J-10.3313
G00 Z-2.5000
G01 Z-3.0000 F100
G02 X153.3258 Y200.0639 Z-3.2500 I-2.8449 J-10.2080
G03 X152.8475 Y200.2094 Z-3.5000 I-3.3232 J-10.0625
G02 X152.1029 Y179.6146 I-2.8449 J-10.2080 F500
G00 Z-1.5000
G02 X147.1525 Y179.7905 I-2.1112 J10.3313
G00 Z5.0000


(No. 14: Part 1)
G00 X174.9327 Y184.9275 Z5.0000
G00 Z0.5000
G01 Z0.0000 F100
G02 X175.0673 Y185.0725 Z-0.1554 I0.0673 J0.0725
G02 X175.0459 Y184.9123 Z-0.2500 I-0.0673 J-0.0725
G03 X175.0673 Y185.0725 Z-0.3446 I-0.0459 J0.0877
G03 X174.9327 Y184.9275 Z-0.5000 I-0.0673 J-0.0725
G02 X175.0673 Y185.0725 I0.0673 J0.0725 F500
G02 X174.9327 Y184.9275 I-0.0673 J-0.0725
G02 X175.0673 Y185.0725 Z-0.6554 I0.0673 J0.0725 F100
G02 X175.0459 Y184.9123 Z-0.7500 I-0.0673 J-0.0725
G03 X175.0673 Y185.0725 Z-0.8446 I-0.0459 J0.0877
G03 X174.9327 Y184.9275 Z-1.0000 I-0.0673 J-0.0725
G02 X175.0673 Y185.0725 I0.0673 J0.0725 F500
G02 X174.9327 Y184.9275 I-0.0673 J-0.0725
G02 X175.0673 Y185.0725 Z-1.1554 I0.0673 J0.0725 F100
G02 X175.0459 Y184.9123 Z-1.2500 I-0.0673 J-0.0725
G03 X175.0673 Y185.0725 Z-1.3446 I-0.0459 J0.0877
G03 X174.9327 Y184.9275 Z-1.5000 I-0.0673 J-0.0725
G02 X175.0673 Y185.0725 I0.0673 J0.0725 F500
G02 X174.9327 Y184.9275 I-0.0673 J-0.0725
G02 X175.0673 Y185.0725 Z-1.6554 I0.0673 J0.0725 F100
G02 X175.0459 Y184.9123 Z-1.7500 I-0.0673 J-0.0725
G03 X175.0673 Y185.0725 Z-1.8446 I-0.0459 J0.0877
G03 X174.9327 Y184.9275 Z-2.0000 I-0.0673 J-0.0725
G02 X175.0673 Y185.0725 I0.0673 J0.0725 F500
G02 X174.9327 Y184.9275 I-0.0673 J-0.0725
G02 X175.0673 Y185.0725 Z-2.1554 I0.0673 J0.0725 F100
G02 X175.0459 Y184.9123 Z-2.2500 I-0.0673 J-0.0725
G03 X175.0673 Y185.0725 Z-2.3446 I-0.0459 J0.0877
G03 X174.9327 Y184.9275 Z-2.5000 I-0.0673 J-0.0725
G02 X175.0673 Y185.0725 I0.0673 J0.0725 F500
G02 X174.9327 Y184.9275 I-0.0673 J-0.0725
G02 X175.0673 Y185.0725 Z-2.6554 I0.0673 J0.0725 F100
G02 X175.0459 Y184.9123 Z-2.7500 I-0.0673 J-0.0725
G03 X175.0673 Y185.0725 Z-2.8446 I-0.0459 J0.0877
G03 X174.9327 Y184.9275 Z-3.0000 I-0.0673 J-0.0725
G02 X175.0673 Y185.0725 I0.0673 J0.0725 F500
G02 X174.9327 Y184.9275 I-0.0673 J-0.0725
G02 X175.0673 Y185.0725 Z-3.1554 I0.0673 J0.0725 F100
G02 X175.0459 Y184.9123 Z-3.2500 I-0.0673 J-0.0725
G03 X175.0673 Y185.0725 Z-3.3446 I-0.0459 J0.0877
G03 X174.9327 Y184.9275 Z-3.5000 I-0.0673 J-0.0725
G02 X175.0673 Y185.0725 I0.0673 J0.0725 F500
G02 X174.9327 Y184.9275 I-0.0673 J-0.0725
G00 Z5.0000


(No. 15: Part 19)
G00 X147.7094 Y139.6514 Z5.0000
G00 Z0.5000
G01 Z0.0000 F100
G02 X147.2239 Y139.7708 Z-0.2500 I2.2882 J10.3471
G03 X147.7094 Y139.6514 Z-0.5000 I2.7737 J10.2277
G02 X147.8971 Y160.3854 I2.2882 J10.3471 F500
G02 X152.8475 Y160.2094 I2.1112 J-10.3313
G02 X152.6620 Y139.7437 I-2.8450 J-10.2079
G02 X147.7094 Y139.6514 I-2.6674 J10.2019
G02 X147.2239 Y139.7708 Z-0.7500 I2.2882 J10.3471 F100
G03 X147.7094 Y139.6514 Z-1.0000 I2.7737 J10.2277
G02 X147.8971 Y160.3854 I2.2882 J10.3471 F500
G02 X152.8475 Y160.2094 I2.1112 J-10.3313
G02 X152.6620 Y139.7437 I-2.8450 J-10.2079
G02 X147.7094 Y139.6514 I-2.6674 J10.2019
G02 X147.2239 Y139.7708 Z-1.2500 I2.2882 J10.3471 F100
G03 X147.7094 Y139.6514 Z-1.5000 I2.7737 J10.2277
G02 X147.8971 Y160.3854 I2.2882 J10.3471 F500
G02 X152.8475 Y160.2094 I2.1112 J-10.3313
G02 X152.6620 Y139.7437 I-2.8450 J-10.2079
G02 X147.7094 Y139.6514 I-2.6674 J10.2019
G02 X147.2239 Y139.7708 Z-1.7500 I2.2882 J10.3471 F100
G03 X147.7094 Y139.6514 Z-2.0000 I2.7737 J10.2277
G02 X147.8971 Y160.3854 I2.2882 J10.3471 F500
G00 Z-1.5000
G02 X152.8475 Y160.2094 I2.1112 J-10.3313
G02 X153.3258 Y160.0639 Z-1.7500 I-2.8450 J-10.2079 F100
G03 X152.8475 Y160.2094 Z-2.0000 I-3.3233 J-10.0624
G02 X152.6620 Y139.7437 I-2.8450 J-10.2079 F500
G00 Z-1.5000
G02 X147.7094 Y139.6514 I-2.6674 J10.2019
G01 Z-2.0000 F100
G02 X147.2239 Y139.7708 Z-2.2500 I2.2882 J10.3471
G03 X147.7094 Y139.6514 Z-2.5000 I2.7737 J10.2277
G02 X147.8971 Y160.3854 I2.2882 J10.3471 F500
G00 Z-1.5000
G02 X152.8475 Y160.2094 I2.1112 J-10.3313
G01 Z-2.0000 F100
G02 X153.3258 Y160.0639 Z-2.2500 I-2.8450 J-10.2079
G03 X152.8475 Y160.2094 Z-2.5000 I-3.3233 J-10.0624
G02 X152.6620 Y139.7437 I-2.8450 J-10.2079 F500
G00 Z-1.5000
G02 X147.7094 Y139.6514 I-2.6674 J10.2019
G00 Z-2.0000
G01 Z-2.5000 F100
G02 X147.2239 Y139.7708 Z-2.7500 I2.2882 J10.3471
G03 X147.7094 Y139.6514 Z-3.0000 I2.7737 J10.2277
G02 X147.8971 Y160.3854 I2.2882 J10.3471 F500
G00 Z-1.5000
G02 X152.8475 Y160.2094 I2.1112 J-10.3313
G00 Z-2.0000
G01 Z-2.5000 F100
G02 X153.3258 Y160.0639 Z-2.7500 I-2.8450 J-10.2079
G03 X152.8475 Y160.2094 Z-3.0000 I-3.3233 J-10.0624
G02 X152.6620 Y139.7437 I-2.8450 J-10.2079 F500
G00 Z-1.5000
G02 X147.7094 Y139.6514 I-2.6674 J10.2019
G00 Z-2.5000
G01 Z-3.0000 F100
G02 X147.2239 Y139.7708 Z-3.2500 I2.2882 J10.3471
G03 X147.7094 Y139.6514 Z-3.5000 I2.7737 J10.2277
G02 X147.8971 Y160.3854 I2.2882 J10.3471 F500
G00 Z-1.5000
G02 X152.8475 Y160.2094 I2.1112 J-10.3313
G00 Z-2.5000
G01 Z-3.0000 F100
G02 X153.3258 Y160.0639 Z-3.2500 I-2.8450 J-10.2079
G03 X152.8475 Y160.2094 Z-3.5000 I-3.3233 J-10.0624
G02 X152.6620 Y139.7437 I-2.8450 J-10.2079 F500
G00 Z-1.5000
G02 X147.7094 Y139.6514 I-2.6674 J10.2019
G00 Z5.0000


(No. 16: Part 18)
G00 X108.3677 Y139.5289 Z5.0000
G00 Z0.5000
G01 Z0.0000 F100
G02 X107.8756 Y139.6175 Z-0.2500 I1.6300 J10.4710
G03 X108.3677 Y139.5289 Z-0.5000 I2.1220 J10.3825
G02 X107.8032 Y160.3673 I1.6300 J10.4710 F500
G02 X112.7549 Y160.2332 I2.1987 J-10.2973
G02 X113.3049 Y139.9310 I-2.7522 J-10.2331
G02 X108.3677 Y139.5289 I-3.2992 J9.9992
G02 X107.8756 Y139.6175 Z-0.7500 I1.6300 J10.4710 F100
G03 X108.3677 Y139.5289 Z-1.0000 I2.1220 J10.3825
G02 X107.8032 Y160.3673 I1.6300 J10.4710 F500
G02 X112.7549 Y160.2332 I2.1987 J-10.2973
G02 X113.3049 Y139.9310 I-2.7522 J-10.2331
G02 X108.3677 Y139.5289 I-3.2992 J9.9992
G02 X107.8756 Y139.6175 Z-1.2500 I1.6300 J10.4710 F100
G03 X108.3677 Y139.5289 Z-1.5000 I2.1220 J10.3825
G02 X107.8032 Y160.3673 I1.6300 J10.4710 F500
G02 X112.7549 Y160.2332 I2.1987 J-10.2973
G02 X113.3049 Y139.9310 I-2.7522 J-10.2331
G02 X108.3677 Y139.5289 I-3.2992 J9.9992
G02 X107.8756 Y139.6175 Z-1.7500 I1.6300 J10.4710 F100
G03 X108.3677 Y139.5289 Z-2.0000 I2.1220 J10.3825
G02 X107.8032 Y160.3673 I1.6300 J10.4710 F500
G00 Z-1.5000
G02 X112.7549 Y160.2332 I2.1987 J-10.2973
G02 X113.2345 Y160.0920 Z-1.7500 I-2.7522 J-10.2331 F100
G03 X112.7549 Y160.2332 Z-2.0000 I-3.2318 J-10.0919
G02 X113.3049 Y139.9310 I-2.7522 J-10.2331 F500
G00 Z-1.5000
G02 X108.3677 Y139.5289 I-3.2992 J9.9992
G01 Z-2.0000 F100
G02 X107.8756 Y139.6175 Z-2.2500 I1.6300 J10.4710
G03 X108.3677 Y139.5289 Z-2.5000 I2.1220 J10.3825
G02 X107.8032 Y160.3673 I1.6300 J10.4710 F500
G00 Z-1.5000
G02 X112.7549 Y160.2332 I2.1987 J-10.2973
G01 Z-2.0000 F100
G02 X113.2345 Y160.0920 Z-2.2500 I-2.7522 J-10.2331
G03 X112.7549 Y160.2332 Z-2.5000 I-3.2318 J-10.0919
G02 X113.3049 Y139.9310 I-2.7522 J-10.2331 F500
G00 Z-1.5000
G02 X108.3677 Y139.5289 I-3.2992 J9.9992
G00 Z-2.0000
G01 Z-2.5000 F100
G02 X107.8756 Y139.6175 Z-2.7500 I1.6300 J10.4710
G03 X108.3677 Y139.5289 Z-3.0000 I2.1220 J10.3825
G02 X107.8032 Y160.3673 I1.6300 J10.4710 F500
G00 Z-1.5000
G02 X112.7549 Y160.2332 I2.1987 J-10.2973
G00 Z-2.0000
G01 Z-2.5000 F100
G02 X113.2345 Y160.0920 Z-2.7500 I-2.7522 J-10.2331
G03 X112.7549 Y160.2332 Z-3.0000 I-3.2318 J-10.0919
G02 X113.3049 Y139.9310 I-2.7522 J-10.2331 F500
G00 Z-1.5000
G02 X108.3677 Y139.5289 I-3.2992 J9.9992
G00 Z-2.5000
G01 Z-3.0000 F100
G02 X107.8756 Y139.6175 Z-3.2500 I1.6300 J10.4710
G03 X108.3677 Y139.5289 Z-3.5000 I2.1220 J10.3825
G02 X107.8032 Y160.3673 I1.6300 J10.4710 F500
G00 Z-1.5000
G02 X112.7549 Y160.2332 I2.1987 J-10.2973
G00 Z-2.5000
G01 Z-3.0000 F100
G02 X113.2345 Y160.0920 Z-3.2500 I-2.7522 J-10.2331
G03 X112.7549 Y160.2332 Z-3.5000 I-3.2318 J-10.0919
G02 X113.3049 Y139.9310 I-2.7522 J-10.2331 F500
G00 Z-1.5000
G02 X108.3677 Y139.5289 I-3.2992 J9.9992
G00 Z5.0000


(No. 17: Part 20)
G00 X147.7094 Y99.6514 Z5.0000
G00 Z0.5000
G01 Z0.0000 F100
G02 X147.2239 Y99.7708 Z-0.2500 I2.2882 J10.3471
G03 X147.7094 Y99.6514 Z-0.5000 I2.7737 J10.2277
G02 X147.8971 Y120.3854 I2.2882 J10.3471 F500
G02 X152.8475 Y120.2095 I2.1112 J-10.3313
G02 X152.6620 Y99.7437 I-2.8450 J-10.2079
G02 X147.7094 Y99.6514 I-2.6674 J10.2019
G02 X147.2239 Y99.7708 Z-0.7500 I2.2882 J10.3471 F100
G03 X147.7094 Y99.6514 Z-1.0000 I2.7737 J10.2277
G02 X147.8971 Y120.3854 I2.2882 J10.3471 F500
G02 X152.8475 Y120.2095 I2.1112 J-10.3313
G02 X152.6620 Y99.7437 I-2.8450 J-10.2079
G02 X147.7094 Y99.6514 I-2.6674 J10.2019
G02 X147.2239 Y99.7708 Z-1.2500 I2.2882 J10.3471 F100
G03 X147.7094 Y99.6514 Z-1.5000 I2.7737 J10.2277
G02 X147.8971 Y120.3854 I2.2882 J10.3471 F500
G02 X152.8475 Y120.2095 I2.1112 J-10.3313
G02 X152.6620 Y99.7437 I-2.8450 J-10.2079
G02 X147.7094 Y99.6514 I-2.6674 J10.2019
G02 X147.2239 Y99.7708 Z-1.7500 I2.2882 J10.3471 F100
G03 X147.7094 Y99.6514 Z-2.0000 I2.7737 J10.2277
G02 X147.8971 Y120.3854 I2.2882 J10.3471 F500
G00 Z-1.5000
G02 X152.8475 Y120.2095 I2.1112 J-10.3313
G02 X153.3258 Y120.0639 Z-1.7500 I-2.8450 J-10.2079 F100
G03 X152.8475 Y120.2095 Z-2.0000 I-3.3233 J-10.0624
G02 X152.6620 Y99.7437 I-2.8450 J-10.2079 F500
G00 Z-1.5000
G02 X147.7094 Y99.6514 I-2.6674 J10.2019
G01 Z-2.0000 F100
G02 X147.2239 Y99.7708 Z-2.2500 I2.2882 J10.3471
G03 X147.7094 Y99.6514 Z-2.5000 I2.7737 J10.2277
G02 X147.8971 Y120.3854 I2.2882 J10.3471 F500
G00 Z-1.5000
G02 X152.8475 Y120.2095 I2.1112 J-10.3313
G01 Z-2.0000 F100
G02 X153.3258 Y120.0639 Z-2.2500 I-2.8450 J-10.2079
G03 X152.8475 Y120.2095 Z-2.5000 I-3.3233 J-10.0624
G02 X152.6620 Y99.7437 I-2.8450 J-10.2079 F500
G00 Z-1.5000
G02 X147.7094 Y99.6514 I-2.6674 J10.2019
G00 Z-2.0000
G01 Z-2.5000 F100
G02 X147.2239 Y99.7708 Z-2.7500 I2.2882 J10.3471
G03 X147.7094 Y99.6514 Z-3.0000 I2.7737 J10.2277
G02 X147.8971 Y120.3854 I2.2882 J10.3471 F500
G00 Z-1.5000
G02 X152.8475 Y120.2095 I2.1112 J-10.3313
G00 Z-2.0000
G01 Z-2.5000 F100
G02 X153.3258 Y120.0639 Z-2.7500 I-2.8450 J-10.2079
G03 X152.8475 Y120.2095 Z-3.0000 I-3.3233 J-10.0624
G02 X152.6620 Y99.7437 I-2.8450 J-10.2079 F500
G00 Z-1.5000
G02 X147.7094 Y99.6514 I-2.6674 J10.2019
G00 Z-2.5000
G01 Z-3.0000 F100
G02 X147.2239 Y99.7708 Z-3.2500 I2.2882 J10.3471
G03 X147.7094 Y99.6514 Z-3.5000 I2.7737 J10.2277
G02 X147.8971 Y120.3854 I2.2882 J10.3471 F500
G00 Z-1.5000
G02 X152.8475 Y120.2095 I2.1112 J-10.3313
G00 Z-2.5000
G01 Z-3.0000 F100
G02 X153.3258 Y120.0639 Z-3.2500 I-2.8450 J-10.2079
G03 X152.8475 Y120.2095 Z-3.5000 I-3.3233 J-10.0624
G02 X152.6620 Y99.7437 I-2.8450 J-10.2079 F500
G00 Z-1.5000
G02 X147.7094 Y99.6514 I-2.6674 J10.2019
G00 Z5.0000


(No. 18: Part 3)
G00 X174.9143 Y104.9505 Z5.0000
G00 Z0.5000
G01 Z0.0000 F100
G02 X175.0857 Y105.0495 Z-0.1554 I0.0857 J0.0495
G02 X175.0180 Y104.9027 Z-0.2500 I-0.0857 J-0.0495
G03 X175.0857 Y105.0495 Z-0.3446 I-0.0180 J0.0973
G03 X174.9143 Y104.9505 Z-0.5000 I-0.0857 J-0.0495
G02 X175.0857 Y105.0495 I0.0857 J0.0495 F500
G02 X174.9143 Y104.9505 I-0.0857 J-0.0495
G02 X175.0857 Y105.0495 Z-0.6554 I0.0857 J0.0495 F100
G02 X175.0180 Y104.9027 Z-0.7500 I-0.0857 J-0.0495
G03 X175.0857 Y105.0495 Z-0.8446 I-0.0180 J0.0973
G03 X174.9143 Y104.9505 Z-1.0000 I-0.0857 J-0.0495
G02 X175.0857 Y105.0495 I0.0857 J0.0495 F500
G02 X174.9143 Y104.9505 I-0.0857 J-0.0495
G02 X175.0857 Y105.0495 Z-1.1554 I0.0857 J0.0495 F100
G02 X175.0180 Y104.9027 Z-1.2500 I-0.0857 J-0.0495
G03 X175.0857 Y105.0495 Z-1.3446 I-0.0180 J0.0973
G03 X174.9143 Y104.9505 Z-1.5000 I-0.0857 J-0.0495
G02 X175.0857 Y105.0495 I0.0857 J0.0495 F500
G02 X174.9143 Y104.9505 I-0.0857 J-0.0495
G02 X175.0857 Y105.0495 Z-1.6554 I0.0857 J0.0495 F100
G02 X175.0180 Y104.9027 Z-1.7500 I-0.0857 J-0.0495
G03 X175.0857 Y105.0495 Z-1.8446 I-0.0180 J0.0973
G03 X174.9143 Y104.9505 Z-2.0000 I-0.0857 J-0.0495
G02 X175.0857 Y105.0495 I0.0857 J0.0495 F500
G02 X174.9143 Y104.9505 I-0.0857 J-0.0495
G02 X175.0857 Y105.0495 Z-2.1554 I0.0857 J0.0495 F100
G02 X175.0180 Y104.9027 Z-2.2500 I-0.0857 J-0.0495
G03 X175.0857 Y105.0495 Z-2.3446 I-0.0180 J0.0973
G03 X174.9143 Y104.9505 Z-2.5000 I-0.0857 J-0.0495
G02 X175.0857 Y105.0495 I0.0857 J0.0495 F500
G02 X174.9143 Y104.9505 I-0.0857 J-0.0495
G02 X175.0857 Y105.0495 Z-2.6554 I0.0857 J0.0495 F100
G02 X175.0180 Y104.9027 Z-2.7500 I-0.0857 J-0.0495
G03 X175.0857 Y105.0495 Z-2.8446 I-0.0180 J0.0973
G03 X174.9143 Y104.9505 Z-3.0000 I-0.0857 J-0.0495
G02 X175.0857 Y105.0495 I0.0857 J0.0495 F500
G02 X174.9143 Y104.9505 I-0.0857 J-0.0495
G02 X175.0857 Y105.0495 Z-3.1554 I0.0857 J0.0495 F100
G02 X175.0180 Y104.9027 Z-3.2500 I-0.0857 J-0.0495
G03 X175.0857 Y105.0495 Z-3.3446 I-0.0180 J0.0973
G03 X174.9143 Y104.9505 Z-3.5000 I-0.0857 J-0.0495
G02 X175.0857 Y105.0495 I0.0857 J0.0495 F500
G02 X174.9143 Y104.9505 I-0.0857 J-0.0495
G00 Z5.0000


(No. 19: Part 8)
G00 X148.6485 Y67.2492 Z5.0000
G00 Z0.5000
G01 Z0.0000 F100
G02 X148.5100 Y67.7272 Z-0.2500 I1.3515 J0.6508
G03 X148.6485 Y67.2492 Z-0.5000 I1.4900 J0.1728
G02 X150.1121 Y69.3958 I1.3515 J0.6508 F500
G02 X151.2394 Y67.0550 I-0.1121 J-1.4958
G02 X148.6485 Y67.2492 I-1.2394 J0.8450
G02 X148.5100 Y67.7272 Z-0.7500 I1.3515 J0.6508 F100
G03 X148.6485 Y67.2492 Z-1.0000 I1.4900 J0.1728
G02 X150.1121 Y69.3958 I1.3515 J0.6508 F500
G02 X151.2394 Y67.0550 I-0.1121 J-1.4958
G02 X148.6485 Y67.2492 I-1.2394 J0.8450
G02 X148.5100 Y67.7272 Z-1.2500 I1.3515 J0.6508 F100
G03 X148.6485 Y67.2492 Z-1.5000 I1.4900 J0.1728
G02 X150.1121 Y69.3958 I1.3515 J0.6508 F500
G02 X151.2394 Y67.0550 I-0.1121 J-1.4958
G02 X148.6485 Y67.2492 I-1.2394 J0.8450
G02 X148.5100 Y67.7272 Z-1.7500 I1.3515 J0.6508 F100
G03 X148.6485 Y67.2492 Z-2.0000 I1.4900 J0.1728
G02 X150.1121 Y69.3958 I1.3515 J0.6508 F500
G02 X151.2394 Y67.0550 I-0.1121 J-1.4958
G02 X148.6485 Y67.2492 I-1.2394 J0.8450
G02 X148.5100 Y67.7272 Z-2.2500 I1.3515 J0.6508 F100
G03 X148.6485 Y67.2492 Z-2.5000 I1.4900 J0.1728
G02 X150.1121 Y69.3958 I1.3515 J0.6508 F500
G02 X151.2394 Y67.0550 I-0.1121 J-1.4958
G02 X148.6485 Y67.2492 I-1.2394 J0.8450
G02 X148.5100 Y67.7272 Z-2.7500 I1.3515 J0.6508 F100
G03 X148.6485 Y67.2492 Z-3.0000 I1.4900 J0.1728
G02 X150.1121 Y69.3958 I1.3515 J0.6508 F500
G02 X151.2394 Y67.0550 I-0.1121 J-1.4958
G02 X148.6485 Y67.2492 I-1.2394 J0.8450
G02 X148.5100 Y67.7272 Z-3.2500 I1.3515 J0.6508 F100
G03 X148.6485 Y67.2492 Z-3.5000 I1.4900 J0.1728
G02 X150.1121 Y69.3958 I1.3515 J0.6508 F500
G02 X151.2394 Y67.0550 I-0.1121 J-1.4958
G02 X148.6485 Y67.2492 I-1.2394 J0.8450
G00 Z5.0000


(No. 20: Part 4)
G00 X174.9022 Y24.9853 Z5.0000
G00 Z0.5000
G01 Z0.0000 F100
G02 X175.0978 Y25.0147 Z-0.1554 I0.0978 J0.0147
G02 X174.9812 Y24.9028 Z-0.2500 I-0.0978 J-0.0147
G03 X175.0978 Y25.0147 Z-0.3446 I0.0188 J0.0971
G03 X174.9022 Y24.9853 Z-0.5000 I-0.0978 J-0.0147
G02 X175.0978 Y25.0147 I0.0978 J0.0147 F500
G02 X174.9022 Y24.9853 I-0.0978 J-0.0147
G02 X175.0978 Y25.0147 Z-0.6554 I0.0978 J0.0147 F100
G02 X174.9812 Y24.9028 Z-0.7500 I-0.0978 J-0.0147
G03 X175.0978 Y25.0147 Z-0.8446 I0.0188 J0.0971
G03 X174.9022 Y24.9853 Z-1.0000 I-0.0978 J-0.0147
G02 X175.0978 Y25.0147 I0.0978 J0.0147 F500
G02 X174.9022 Y24.9853 I-0.0978 J-0.0147
G02 X175.0978 Y25.0147 Z-1.1554 I0.0978 J0.0147 F100
G02 X174.9812 Y24.9028 Z-1.2500 I-0.0978 J-0.0147
G03 X175.0978 Y25.0147 Z-1.3446 I0.0188 J0.0971
G03 X174.9022 Y24.9853 Z-1.5000 I-0.0978 J-0.0147
G02 X175.0978 Y25.0147 I0.0978 J0.0147 F500
G02 X174.9022 Y24.9853 I-0.0978 J-0.0147
G02 X175.0978 Y25.0147 Z-1.6554 I0.0978 J0.0147 F100
G02 X174.9812 Y24.9028 Z-1.7500 I-0.0978 J-0.0147
G03 X175.0978 Y25.0147 Z-1.8446 I0.0188 J0.0971
G03 X174.9022 Y24.9853 Z-2.0000 I-0.0978 J-0.0147
G02 X175.0978 Y25.0147 I0.0978 J0.0147 F500
G02 X174.9022 Y24.9853 I-0.0978 J-0.0147
G02 X175.0978 Y25.0147 Z-2.1554 I0.0978 J0.0147 F100
G02 X174.9812 Y24.9028 Z-2.2500 I-0.0978 J-0.0147
G03 X175.0978 Y25.0147 Z-2.3446 I0.0188 J0.0971
G03 X174.9022 Y24.9853 Z-2.5000 I-0.0978 J-0.0147
G02 X175.0978 Y25.0147 I0.0978 J0.0147 F500
G02 X174.9022 Y24.9853 I-0.0978 J-0.0147
G02 X175.0978 Y25.0147 Z-2.6554 I0.0978 J0.0147 F100
G02 X174.9812 Y24.9028 Z-2.7500 I-0.0978 J-0.0147
G03 X175.0978 Y25.0147 Z-2.8446 I0.0188 J0.0971
G03 X174.9022 Y24.9853 Z-3.0000 I-0.0978 J-0.0147
G02 X175.0978 Y25.0147 I0.0978 J0.0147 F500
G02 X174.9022 Y24.9853 I-0.0978 J-0.0147
G02 X175.0978 Y25.0147 Z-3.1554 I0.0978 J0.0147 F100
G02 X174.9812 Y24.9028 Z-3.2500 I-0.0978 J-0.0147
G03 X175.0978 Y25.0147 Z-3.3446 I0.0188 J0.0971
G03 X174.9022 Y24.9853 Z-3.5000 I-0.0978 J-0.0147
G02 X175.0978 Y25.0147 I0.0978 J0.0147 F500
G02 X174.9022 Y24.9853 I-0.0978 J-0.0147
G00 Z5.0000


(No. 21: Part 2)
G00 X-1.5000 Y42.4867 Z5.0000
G00 Z0.5000
G01 Z0.0000 F100
G01 Y41.9867 Z-0.2500
G01 Y42.4867 Z-0.5000
G01 Y0.0000 F500
G03 X0.0000 Y-1.5000 I1.5000 J0.0000
G01 X87.5000
G01 X92.5000
G01 X180.0000
G03 X181.5000 Y0.0000 I0.0000 J1.5000
G01 Y38.7068
G01 Y43.7068
G01 Y164.1980
G01 Y169.1980
G01 Y210.0000
G03 X180.0000 Y211.5000 I-1.5000 J0.0000
G01 X92.5000
G01 X87.5000
G01 X0.0000
G03 X-1.5000 Y210.0000 I0.0000 J-1.5000
G01 Y168.4420
G01 Y163.4420
G01 Y47.4867
G01 Y42.4867
G01 Y41.9867 Z-0.7500 F100
G01 Y42.4867 Z-1.0000
G01 Y0.0000 F500
G03 X0.0000 Y-1.5000 I1.5000 J0.0000
G01 X87.5000
G01 X92.5000
G01 X180.0000
G03 X181.5000 Y0.0000 I0.0000 J1.5000
G01 Y38.7068
G01 Y43.7068
G01 Y164.1980
G01 Y169.1980
G01 Y210.0000
G03 X180.0000 Y211.5000 I-1.5000 J0.0000
G01 X92.5000
G01 X87.5000
G01 X0.0000
G03 X-1.5000 Y210.0000 I0.0000 J-1.5000
G01 Y168.4420
G01 Y163.4420
G01 Y47.4867
G01 Y42.4867
G01 Y41.9867 Z-1.2500 F100
G01 Y42.4867 Z-1.5000
G01 Y0.0000 F500
G03 X0.0000 Y-1.5000 I1.5000 J0.0000
G01 X87.5000
G01 X92.5000
G01 X180.0000
G03 X181.5000 Y0.0000 I0.0000 J1.5000
G01 Y38.7068
G01 Y43.7068
G01 Y164.1980
G01 Y169.1980
G01 Y210.0000
G03 X180.0000 Y211.5000 I-1.5000 J0.0000
G01 X92.5000
G01 X87.5000
G01 X0.0000
G03 X-1.5000 Y210.0000 I0.0000 J-1.5000
G01 Y168.4420
G01 Y163.4420
G01 Y47.4867
G01 Y42.4867
G01 Y41.9867 Z-1.7500 F100
G01 Y42.4867 Z-2.0000
G01 Y0.0000 F500
G03 X0.0000 Y-1.5000 I1.5000 J0.0000
G01 X87.5000
G00 Z-1.5000
G01 X92.5000
G01 X93.0000 Z-1.7500 F100
G01 X92.5000 Z-2.0000
G01 X180.0000 F500
G03 X181.5000 Y0.0000 I0.0000 J1.5000
G01 Y38.7068
G00 Z-1.5000
G01 Y43.7068
G01 Y44.2068 Z-1.7500 F100
G01 Y43.7068 Z-2.0000
G01 Y164.1980 F500
G00 Z-1.5000
G01 Y169.1980
G01 Y169.6980 Z-1.7500 F100
G01 Y169.1980 Z-2.0000
G01 Y210.0000 F500
G03 X180.0000 Y211.5000 I-1.5000 J0.0000
G01 X92.5000
G00 Z-1.5000
G01 X87.5000
G01 X87.0000 Z-1.7500 F100
G01 X87.5000 Z-2.0000
G01 X0.0000 F500
G03 X-1.5000 Y210.0000 I0.0000 J-1.5000
G01 Y168.4420
G00 Z-1.5000
G01 Y163.4420
G01 Y162.9420 Z-1.7500 F100
G01 Y163.4420 Z-2.0000
G01 Y47.4867 F500
G00 Z-1.5000
G01 Y42.4867
G01 Z-2.0000 F100
G01 Y41.9867 Z-2.2500
G01 Y42.4867 Z-2.5000
G01 Y0.0000 F500
G03 X0.0000 Y-1.5000 I1.5000 J0.0000
G01 X87.5000
G00 Z-1.5000
G01 X92.5000
G01 Z-2.0000 F100
G01 X93.0000 Z-2.2500
G01 X92.5000 Z-2.5000
G01 X180.0000 F500
G03 X181.5000 Y0.0000 I0.0000 J1.5000
G01 Y38.7068
G00 Z-1.5000
G01 Y43.7068
G01 Z-2.0000 F100
G01 Y44.2068 Z-2.2500
G01 Y43.7068 Z-2.5000
G01 Y164.1980 F500
G00 Z-1.5000
G01 Y169.1980
G01 Z-2.0000 F100
G01 Y169.6980 Z-2.2500
G01 Y169.1980 Z-2.5000
G01 Y210.0000 F500
G03 X180.0000 Y211.5000 I-1.5000 J0.0000
G01 X92.5000
G00 Z-1.5000
G01 X87.5000
G01 Z-2.0000 F100
G01 X87.0000 Z-2.2500
G01 X87.5000 Z-2.5000
G01 X0.0000 F500
G03 X-1.5000 Y210.0000 I0.0000 J-1.5000
G01 Y168.4420
G00 Z-1.5000
G01 Y163.4420
G01 Z-2.0000 F100
G01 Y162.9420 Z-2.2500
G01 Y163.4420 Z-2.5000
G01 Y47.4867 F500
G00 Z-1.5000
G01 Y42.4867
G00 Z-2.0000
G01 Z-2.5000 F100
G01 Y41.9867 Z-2.7500
G01 Y42.4867 Z-3.0000
G01 Y0.0000 F500
G03 X0.0000 Y-1.5000 I1.5000 J0.0000
G01 X87.5000
G00 Z-1.5000
G01 X92.5000
G00 Z-2.0000
G01 Z-2.5000 F100
G01 X93.0000 Z-2.7500
G01 X92.5000 Z-3.0000
G01 X180.0000 F500
G03 X181.5000 Y0.0000 I0.0000 J1.5000
G01 Y38.7068
G00 Z-1.5000
G01 Y43.7068
G00 Z-2.0000
G01 Z-2.5000 F100
G01 Y44.2068 Z-2.7500
G01 Y43.7068 Z-3.0000
G01 Y164.1980 F500
G00 Z-1.5000
G01 Y169.1980
G00 Z-2.0000
G01 Z-2.5000 F100
G01 Y169.6980 Z-2.7500
G01 Y169.1980 Z-3.0000
G01 Y210.0000 F500
G03 X180.0000 Y211.5000 I-1.5000 J0.0000
G01 X92.5000
G00 Z-1.5000
G01 X87.5000
G00 Z-2.0000
G01 Z-2.5000 F100
G01 X87.0000 Z-2.7500
G01 X87.5000 Z-3.0000
G01 X0.0000 F500
G03 X-1.5000 Y210.0000 I0.0000 J-1.5000
G01 Y168.4420
G00 Z-1.5000
G01 Y163.4420
G00 Z-2.0000
G01 Z-2.5000 F100
G01 Y162.9420 Z-2.7500
G01 Y163.4420 Z-3.0000
G01 Y47.4867 F500
G00 Z-1.5000
G01 Y42.4867
G00 Z-2.5000
G01 Z-3.0000 F100
G01 Y41.9867 Z-3.2500
G01 Y42.4867 Z-3.5000
G01 Y0.0000 F500
G03 X0.0000 Y-1.5000 I1.5000 J0.0000
G01 X87.5000
G00 Z-1.5000
G01 X92.5000
G00 Z-2.5000
G01 Z-3.0000 F100
G01 X93.0000 Z-3.2500
G01 X92.5000 Z-3.5000
G01 X180.0000 F500
G03 X181.5000 Y0.0000 I0.0000 J1.5000
G01 Y38.7068
G00 Z-1.5000
G01 Y43.7068
G00 Z-2.5000
G01 Z-3.0000 F100
G01 Y44.2068 Z-3.2500
G01 Y43.7068 Z-3.5000
G01 Y164.1980 F500
G00 Z-1.5000
G01 Y169.1980
G00 Z-2.5000
G01 Z-3.0000 F100
G01 Y169.6980 Z-3.2500
G01 Y169.1980 Z-3.5000
G01 Y210.0000 F500
G03 X180.0000 Y211.5000 I-1.5000 J0.0000
G01 X92.5000
G00 Z-1.5000
G01 X87.5000
G00 Z-2.5000
G01 Z-3.0000 F100
G01 X87.0000 Z-3.2500
G01 X87.5000 Z-3.5000
G01 X0.0000 F500
G03 X-1.5000 Y210.0000 I0.0000 J-1.5000
G01 Y168.4420
G00 Z-1.5000
G01 Y163.4420
G00 Z-2.5000
G01 Z-3.0000 F100
G01 Y162.9420 Z-3.2500
G01 Y163.4420 Z-3.5000
G01 Y47.4867 F500
G00 Z-1.5000
G01 Y42.4867
G00 Z5.0000
G00 X0.0000 Y0.0000

M05
M30
