(Project Planos_Cortes)
(Created by Estlcam version 11 build 11,244)
(Machining time about 00:44:37 hours)

(Required tools:)
(PLANA 5mm MADERA)

G90
G91.1
M03 S24000
G00 Z5.0000


(No. 1: Part 27)
G00 X56.8095 Y29.8808
G00 Z0.5000
G01 Z0.0000 F100 S24000
G01 Z-6.0000
G02 X56.9863 Y29.9697 I0.0884 J0.0444 F500
G02 X56.8095 Y29.8808 I-0.0884 J-0.0444
G01 Z-11.0000 F100
G02 X56.9863 Y29.9697 I0.0884 J0.0444 F500
G02 X56.8095 Y29.8808 I-0.0884 J-0.0444
G00 Z5.0000


(No. 2: Part 28)
G00 X56.8388 Y79.8459 Z5.0000
G00 Z0.5000
G01 Z0.0000 F100
G01 Z-6.0000
G02 X56.9658 Y79.9972 I0.0591 J0.0794 F500
G02 X56.8388 Y79.8459 I-0.0679 J-0.0720
G01 Z-11.0000 F100
G02 X56.9658 Y79.9972 I0.0591 J0.0794 F500
G02 X56.8388 Y79.8459 I-0.0679 J-0.0720
G00 Z5.0000


(No. 3: Part 26)
G00 X37.7353 Y126.0244 Z5.0000
G00 Z0.5000
G01 Z0.0000 F100
G01 Z-6.0000
G02 X37.8029 Y126.2101 I0.0284 J0.0948 F500
G02 X37.7353 Y126.0244 I-0.0392 J-0.0909
G01 Z-11.0000 F100
G02 X37.8029 Y126.2101 I0.0284 J0.0948 F500
G02 X37.7353 Y126.0244 I-0.0392 J-0.0909
G00 Z5.0000


(No. 4: Part 23)
G00 X18.6181 Y172.2149 Z5.0000
G00 Z0.5000
G01 Z0.0000 F100
G01 Z-6.0000
G02 X18.6410 Y172.4115 I0.0115 J0.0983 F500
G02 X18.6181 Y172.2149 I-0.0115 J-0.0983
G01 Z-11.0000 F100
G02 X18.6410 Y172.4115 I0.0115 J0.0983 F500
G02 X18.6181 Y172.2149 I-0.0115 J-0.0983
G00 Z5.0000


(No. 5: Part 29)
G00 X172.9994 Y158.0707 Z5.0000
G00 Z0.5000
G01 Z0.0000 F100
G01 Z-6.0000
G02 X173.1433 Y158.2065 I0.0720 J0.0679 F500
G02 X172.9994 Y158.0707 I-0.0720 J-0.0679
G01 Z-11.0000 F100
G02 X173.1433 Y158.2065 I0.0720 J0.0679 F500
G02 X172.9994 Y158.0707 I-0.0720 J-0.0679
G00 Z5.0000


(No. 6: Part 32)
G00 X222.9920 Y158.0795 Z5.0000
G00 Z0.5000
G01 Z0.0000 F100
G01 Z-6.0000
G02 X223.1507 Y158.1976 I0.0794 J0.0591 F500
G02 X222.9920 Y158.0795 I-0.0794 J-0.0591
G01 Z-11.0000 F100
G02 X223.1507 Y158.1976 I0.0794 J0.0591 F500
G02 X222.9920 Y158.0795 I-0.0794 J-0.0591
G00 Z5.0000


(No. 7: Part 33)
G00 X272.9856 Y158.0891 Z5.0000
G00 Z0.5000
G01 Z0.0000 F100
G01 Z-6.0000
G02 X273.1570 Y158.1880 I0.0857 J0.0495 F500
G02 X272.9856 Y158.0891 I-0.0857 J-0.0495
G01 Z-11.0000 F100
G02 X273.1570 Y158.1880 I0.0857 J0.0495 F500
G02 X272.9856 Y158.0891 I-0.0857 J-0.0495
G00 Z5.0000


(No. 8: Part 35)
G00 X322.9829 Y158.0941 Z5.0000
G00 Z0.5000
G01 Z0.0000 F100
G01 Z-6.0000
G02 X323.1597 Y158.1830 I0.0884 J0.0444 F500
G02 X322.9829 Y158.0941 I-0.0884 J-0.0444
G01 Z-11.0000 F100
G02 X323.1597 Y158.1830 I0.0884 J0.0444 F500
G02 X322.9829 Y158.0941 I-0.0884 J-0.0444
G00 Z5.0000


(No. 9: Part 36)
G00 X322.9784 Y108.1047 Z5.0000
G00 Z0.5000
G01 Z0.0000 F100
G01 Z-6.0000
G02 X323.1643 Y108.1724 I0.0930 J0.0338 F500
G02 X322.9784 Y108.1047 I-0.0930 J-0.0338
G01 Z-11.0000 F100
G02 X323.1643 Y108.1724 I0.0930 J0.0338 F500
G02 X322.9784 Y108.1047 I-0.0930 J-0.0338
G00 Z5.0000


(No. 10: Part 34)
G00 X342.1081 Y61.9274 Z5.0000
G00 Z0.5000
G01 Z0.0000 F100
G01 Z-6.0000
G02 X342.3030 Y61.9618 I0.0974 J0.0172 F500
G02 X342.1081 Y61.9274 I-0.0974 J-0.0172
G01 Z-11.0000 F100
G02 X342.3030 Y61.9618 I0.0974 J0.0172 F500
G02 X342.1081 Y61.9274 I-0.0974 J-0.0172
G00 Z5.0000


(No. 11: Part 31)
G00 X361.2409 Y15.7448 Z5.0000
G00 Z0.5000
G01 Z0.0000 F100
G01 Z-6.0000
G02 X361.4384 I0.0988 J0.0058 F500
G02 X361.2409 I-0.0988 J0.0058
G01 Z-11.0000 F100
G02 X361.4384 I0.0988 J0.0058 F500
G02 X361.2409 I-0.0988 J0.0058
G00 Z5.0000


(No. 12: Part 21)
G00 X206.7996 Y29.9138 Z5.0000
G00 Z0.5000
G01 Z0.0000 F100
G01 Z-6.0000
G02 X206.9962 Y29.9367 I0.0983 J0.0115 F500
G02 X206.7996 Y29.9138 I-0.0983 J-0.0115
G01 Z-11.0000 F100
G02 X206.9962 Y29.9367 I0.0983 J0.0115 F500
G02 X206.7996 Y29.9138 I-0.0983 J-0.0115
G00 Z5.0000


(No. 13: Part 24)
G00 X156.8005 Y29.9081 Z5.0000
G00 Z0.5000
G01 Z0.0000 F100
G01 Z-6.0000
G02 X156.9953 Y29.9424 I0.0974 J0.0172 F500
G02 X156.8005 Y29.9081 I-0.0974 J-0.0172
G01 Z-11.0000 F100
G02 X156.9953 Y29.9424 I0.0974 J0.0172 F500
G02 X156.8005 Y29.9081 I-0.0974 J-0.0172
G00 Z5.0000


(No. 14: Part 25)
G00 X106.8031 Y29.8969 Z5.0000
G00 Z0.5000
G01 Z0.0000 F100
G01 Z-6.0000
G02 X106.9953 Y29.9424 I0.0948 J0.0284 F500
G02 X106.8031 Y29.8969 I-0.0974 J-0.0172
G01 Z-11.0000 F100
G02 X106.9953 Y29.9424 I0.0948 J0.0284 F500
G02 X106.8031 Y29.8969 I-0.0974 J-0.0172
G00 Z5.0000


(No. 15: Part 22)
G00 X23.2515 Y34.6394 Z5.0000
G00 Z0.5000
G01 Z0.0000 F100
G01 Z-6.0000
G01 X29.4359 Y-0.4341 F500
G03 X31.8979 Y-2.5000 I2.4620 J0.4341
G01 X44.8274
G01 X54.8274
G01 X157.9522
G01 X167.9522
G01 X296.3416
G01 X306.3416
G01 X324.4465
G03 X326.9465 Y0.0000 I0.0000 J2.5000
G01 Y30.0000
G03 X324.8806 Y32.4620 I-2.5000 J0.0000
G01 X224.4477 Y50.1710
G01 X214.5996 Y51.9075
G01 X114.1667 Y69.6166
G01 X89.5097 Y104.8304
G01 X83.7740 Y113.0219
G01 X43.8634 Y170.0201
G01 X38.1276 Y178.2116
G01 X31.5921 Y187.5453
G03 X29.1101 Y188.5734 I-2.0479 J-1.4339
G01 X-0.4341 Y183.3640
G03 X-2.4620 Y180.4678 I0.4341 J-2.4620
G01 X4.3397 Y141.8933
G01 X6.0762 Y132.0452
G01 X21.5150 Y44.4875
G01 X23.2515 Y34.6394
G01 Z-11.0000 F100
G01 X29.4359 Y-0.4341 F500
G03 X31.8979 Y-2.5000 I2.4620 J0.4341
G01 X44.8274
G00 Z-6.0000
G01 X54.8274
G01 Z-11.0000 F100
G01 X157.9522 F500
G00 Z-6.0000
G01 X167.9522
G01 Z-11.0000 F100
G01 X296.3416 F500
G00 Z-6.0000
G01 X306.3416
G01 Z-11.0000 F100
G01 X324.4465 F500
G03 X326.9465 Y0.0000 I0.0000 J2.5000
G01 Y30.0000
G03 X324.8806 Y32.4620 I-2.5000 J0.0000
G01 X224.4477 Y50.1710
G00 Z-6.0000
G01 X214.5996 Y51.9075
G01 Z-11.0000 F100
G01 X114.1667 Y69.6166 F500
G01 X89.5097 Y104.8304
G00 Z-6.0000
G01 X83.7740 Y113.0219
G01 Z-11.0000 F100
G01 X43.8634 Y170.0201 F500
G00 Z-6.0000
G01 X38.1276 Y178.2116
G01 Z-11.0000 F100
G01 X31.5921 Y187.5453 F500
G03 X29.1101 Y188.5734 I-2.0479 J-1.4339
G01 X-0.4341 Y183.3640
G03 X-2.4620 Y180.4678 I0.4341 J-2.4620
G01 X4.3397 Y141.8933
G00 Z-6.0000
G01 X6.0762 Y132.0452
G01 Z-11.0000 F100
G01 X21.5150 Y44.4875 F500
G00 Z-6.0000
G01 X23.2515 Y34.6394
G00 Z5.0000


(No. 16: Part 30)
G00 X83.1962 Y190.5638 Z5.0000
G00 Z0.5000
G01 Z0.0000 F100
G01 Z-6.0000
G01 X55.5227 F500
G03 X53.0227 Y188.0638 I0.0000 J-2.5000
G01 Y158.0638
G03 X55.0886 Y155.6018 I2.5000 J0.0000
G01 X155.5215 Y137.8928
G01 X165.3696 Y136.1563
G01 X265.8025 Y118.4472
G01 X290.4595 Y83.2334
G01 X296.1952 Y75.0419
G01 X348.3771 Y0.5185
G03 X350.8591 Y-0.5096 I2.0479 J1.4339
G01 X360.7072 Y1.2269
G01 X370.5553 Y2.9633
G01 X380.4033 Y4.6998
G03 X382.4312 Y7.5960 I-0.4341 J2.4620
G01 X367.3505 Y93.1229
G01 X365.6140 Y102.9710
G01 X350.5333 Y188.4979
G03 X348.0713 Y190.5638 I-2.4620 J-0.4341
G01 X323.5938
G01 X313.5938
G01 X93.1962
G01 X83.1962
G01 Z-11.0000 F100
G01 X55.5227 F500
G03 X53.0227 Y188.0638 I0.0000 J-2.5000
G01 Y158.0638
G03 X55.0886 Y155.6018 I2.5000 J0.0000
G01 X155.5215 Y137.8928
G00 Z-6.0000
G01 X165.3696 Y136.1563
G01 Z-11.0000 F100
G01 X265.8025 Y118.4472 F500
G01 X290.4595 Y83.2334
G00 Z-6.0000
G01 X296.1952 Y75.0419
G01 Z-11.0000 F100
G01 X348.3771 Y0.5185 F500
G03 X350.8591 Y-0.5096 I2.0479 J1.4339
G01 X360.7072 Y1.2269
G00 Z-6.0000
G01 X370.5553 Y2.9633
G01 Z-11.0000 F100
G01 X380.4033 Y4.6998 F500
G03 X382.4312 Y7.5960 I-0.4341 J2.4620
G01 X367.3505 Y93.1229
G00 Z-6.0000
G01 X365.6140 Y102.9710
G01 Z-11.0000 F100
G01 X350.5333 Y188.4979 F500
G03 X348.0713 Y190.5638 I-2.4620 J-0.4341
G01 X323.5938
G00 Z-6.0000
G01 X313.5938
G01 Z-11.0000 F100
G01 X93.1962 F500
G00 Z-6.0000
G01 X83.1962
G00 Z5.0000


(No. 17: Part 37)
G00 X92.9849 Y191.3889 Z5.0000
G00 Z0.5000
G01 Z0.0000 F100
G01 Z-6.0000
G01 X175.7129 F500
G03 X178.2129 Y193.8889 I0.0000 J2.5000
G01 Y268.8889
G01 Y278.8889
G01 Y353.8889
G03 X175.7129 Y356.3889 I-2.5000 J0.0000
G01 X92.9849
G01 X82.9849
G01 X0.2569
G03 X-2.2431 Y353.8889 I0.0000 J-2.5000
G01 Y278.8889
G01 Y268.8889
G01 Y193.8889
G03 X0.2569 Y191.3889 I2.5000 J0.0000
G01 X82.9849
G01 X92.9849
G01 Z-11.0000 F100
G01 X175.7129 F500
G03 X178.2129 Y193.8889 I0.0000 J2.5000
G01 Y268.8889
G00 Z-6.0000
G01 Y278.8889
G01 Z-11.0000 F100
G01 Y353.8889 F500
G03 X175.7129 Y356.3889 I-2.5000 J0.0000
G01 X92.9849
G00 Z-6.0000
G01 X82.9849
G01 Z-11.0000 F100
G01 X0.2569 F500
G03 X-2.2431 Y353.8889 I0.0000 J-2.5000
G01 Y278.8889
G00 Z-6.0000
G01 Y268.8889
G01 Z-11.0000 F100
G01 Y193.8889 F500
G03 X0.2569 Y191.3889 I2.5000 J0.0000
G01 X82.9849
G00 Z-6.0000
G01 X92.9849
G00 Z5.0000


(No. 18: Part 38)
G00 X178.7867 Y269.0525 Z5.0000
G00 Z0.5000
G01 Z0.0000 F100
G01 Z-6.0000
G01 Y194.0525 F500
G03 X181.2867 Y191.5525 I2.5000 J0.0000
G01 X313.3655
G01 X323.3655
G01 X455.4443
G03 X457.9443 Y194.0525 I0.0000 J2.5000
G01 Y269.0525
G01 Y279.0525
G01 Y354.0525
G03 X455.4443 Y356.5525 I-2.5000 J0.0000
G01 X323.3655
G01 X313.3655
G01 X181.2867
G03 X178.7867 Y354.0525 I0.0000 J-2.5000
G01 Y279.0525
G01 Y269.0525
G01 Z-11.0000 F100
G01 Y194.0525 F500
G03 X181.2867 Y191.5525 I2.5000 J0.0000
G01 X313.3655
G00 Z-6.0000
G01 X323.3655
G01 Z-11.0000 F100
G01 X455.4443 F500
G03 X457.9443 Y194.0525 I0.0000 J2.5000
G01 Y269.0525
G00 Z-6.0000
G01 Y279.0525
G01 Z-11.0000 F100
G01 Y354.0525 F500
G03 X455.4443 Y356.5525 I-2.5000 J0.0000
G01 X323.3655
G00 Z-6.0000
G01 X313.3655
G01 Z-11.0000 F100
G01 X181.2867 F500
G03 X178.7867 Y354.0525 I0.0000 J-2.5000
G01 Y279.0525
G00 Z-6.0000
G01 Y269.0525
G00 Z5.0000


(No. 19: Part 39)
G00 X378.3184 Y131.0218 Z5.0000
G00 Z0.5000
G01 Z0.0000 F100
G01 Z-6.0000
G01 Y29.3552 F500
G03 X380.8184 Y26.8552 I2.5000 J0.0000
G01 X393.1500
G01 X403.1500
G01 X415.4815
G03 X417.9815 Y29.3552 I0.0000 J2.5000
G01 Y47.3915
G01 Y57.3915
G01 Y152.2205
G01 Y162.2205
G01 Y189.3552
G03 X415.4815 Y191.8552 I-2.5000 J0.0000
G01 X380.8184
G03 X378.3184 Y189.3552 I0.0000 J-2.5000
G01 Y141.0218
G01 Y131.0218
G01 Z-11.0000 F100
G01 Y29.3552 F500
G03 X380.8184 Y26.8552 I2.5000 J0.0000
G01 X393.1500
G00 Z-6.0000
G01 X403.1500
G01 Z-11.0000 F100
G01 X415.4815 F500
G03 X417.9815 Y29.3552 I0.0000 J2.5000
G01 Y47.3915
G00 Z-6.0000
G01 Y57.3915
G01 Z-11.0000 F100
G01 Y152.2205 F500
G00 Z-6.0000
G01 Y162.2205
G01 Z-11.0000 F100
G01 Y189.3552 F500
G03 X415.4815 Y191.8552 I-2.5000 J0.0000
G01 X380.8184
G03 X378.3184 Y189.3552 I0.0000 J-2.5000
G01 Y141.0218
G00 Z-6.0000
G01 Y131.0218
G00 Z5.0000


(No. 20: Part 40)
G00 X419.7104 Y47.3915 Z5.0000
G00 Z0.5000
G01 Z0.0000 F100
G01 Z-6.0000
G01 Y29.4013 F500
G03 X422.2104 Y26.9013 I2.5000 J0.0000
G01 X453.9737
G03 X456.4737 Y29.4013 I0.0000 J2.5000
G01 Y39.4728
G01 Y49.4728
G01 Y104.4013
G01 Y114.4013
G01 Y166.1726
G01 Y176.1726
G01 Y189.4013
G03 X453.9737 Y191.9013 I-2.5000 J0.0000
G01 X422.2104
G03 X419.7104 Y189.4013 I0.0000 J-2.5000
G01 Y162.5976
G01 Y152.5976
G01 Y57.3915
G01 Y47.3915
G01 Z-11.0000 F100
G01 Y29.4013 F500
G03 X422.2104 Y26.9013 I2.5000 J0.0000
G01 X453.9737
G03 X456.4737 Y29.4013 I0.0000 J2.5000
G01 Y39.4728
G00 Z-6.0000
G01 Y49.4728
G01 Z-11.0000 F100
G01 Y104.4013 F500
G00 Z-6.0000
G01 Y114.4013
G01 Z-11.0000 F100
G01 Y166.1726 F500
G00 Z-6.0000
G01 Y176.1726
G01 Z-11.0000 F100
G01 Y189.4013 F500
G03 X453.9737 Y191.9013 I-2.5000 J0.0000
G01 X422.2104
G03 X419.7104 Y189.4013 I0.0000 J-2.5000
G01 Y162.5976
G00 Z-6.0000
G01 Y152.5976
G01 Z-11.0000 F100
G01 Y57.3915 F500
G00 Z-6.0000
G01 Y47.3915
G00 Z5.0000
G00 X0.0000 Y0.0000

M05
M30
